!!!COM: Vivaldi, Antonio
!!!OTL: Concerto a violino solo, No. 5
!!!XEN: Violin Concerto No. 5
!!!OTP: La Tempesta di Mare
!!!OTA: The Storm at Sea
!!!OPR: Il Cimento dell'armonia e dell'inventione
!!!XEN: The Contest of Harmony and Invention
!!!OPS: Opus 8
!!!ONM: No. 5
!!!OMV: Movement 1.
!!!YEC: Copyright 1996, Center for Computer Assisted Research in the Humanities
!!!YEM: Rights to all derivative electronic formats reserved.
!!!YEM: Refer to licensing agreement for important restrictions.
!!!OMD: Presto
**kern	**kern	**kern	**kern	**kern	**Bnum
*Icello	*Iviola	*Ivioln	*Ivioln	*Ivioln	*Icemba
*Icemba	*	*	*	*	*
*ICstr	*ICstr	*ICstr	*ICstr	*ICstr	*ICklav
*ICklav	*	*	*	*	*
!cello	!viola 	!violino 2	!violino 1	!violino principale	!continuo
!basso continuo	!	!	!	!	!
*clefF4	*clefC3	*clefG2	*clefG2	*clefG2	*
*k[b-e-a-]	*k[b-e-a-]	*k[b-e-a-]	*k[b-e-a-]	*k[b-e-a-]	*k[b-e-a-]
*B-:	*B-:	*B-:	*B-:	*B-:	*B-:
*M4/4	*M4/4	*M4/4	*M4/4	*M4/4	*M4/4
*>Selfridge-Field[etc1,S14,etc2,S23,etc3,S29,etc4,S48,etc5,S52,etc6]	*>Selfridge-Field[etc1,S14,etc2,S23,etc3,S29,etc4,S48,etc5,S52,etc6]	*>Selfridge-Field[etc1,S14,etc2,S23,etc3,S29,etc4,S48,etc5,S52,etc6]	*>Selfridge-Field[etc1,S14,etc2,S23,etc3,S29,etc4,S48,etc5,S52,etc6]	*>Selfridge-Field[etc1,S14,etc2,S23,etc3,S29,etc4,S48,etc5,S52,etc6]	*>Selfridge-Field[etc1,S14,etc2,S23,etc3,S29,etc4,S48,etc5,S52,etc6]
*>Amsterdam[etc1,S14,etc2,S23,etc3,A29,etc4,A48,etc5,S52,etc6]	*>Amsterdam[etc1,S14,etc2,S23,etc3,A29,etc4,A48,etc5,S52,etc6]	*>Amsterdam[etc1,S14,etc2,S23,etc3,A29,etc4,A48,etc5,S52,etc6]	*>Amsterdam[etc1,S14,etc2,S23,etc3,A29,etc4,A48,etc5,S52,etc6]	*>Amsterdam[etc1,S14,etc2,S23,etc3,A29,etc4,A48,etc5,S52,etc6]	*>Amsterdam[etc1,S14,etc2,S23,etc3,A29,etc4,A48,etc5,S52,etc6]
*>Manchester[etc1,M14,etc2,M23,etc3,M29,etc4,S48,etc5,M52,etc6]	*>Manchester[etc1,M14,etc2,M23,etc3,M29,etc4,S48,etc5,M52,etc6]	*>Manchester[etc1,M14,etc2,M23,etc3,M29,etc4,S48,etc5,M52,etc6]	*>Manchester[etc1,M14,etc2,M23,etc3,M29,etc4,S48,etc5,M52,etc6]	*>Manchester[etc1,M14,etc2,M23,etc3,M29,etc4,S48,etc5,M52,etc6]	*>Manchester[etc1,M14,etc2,M23,etc3,M29,etc4,S48,etc5,M52,etc6]
*>etc1	*>etc1	*>etc1	*>etc1	*>etc1	*>etc1
=1-	=1-	=1-	=1-	=1-	=1-
1r	1r	1r	16e-/LL	16e-/LL	.
.	.	.	16e-/	16e-/	.
.	.	.	16e-/	16e-/	.
.	.	.	16e-/JJ	16e-/JJ	.
.	.	.	16e-/LL	16e-/LL	.
.	.	.	16e-/	16e-/	.
.	.	.	16e-/	16e-/	.
.	.	.	16e-/JJ	16e-/JJ	.
.	.	.	16b-\LL	16b-\LL	.
.	.	.	16b-\	16b-\	.
.	.	.	16b-\	16b-\	.
.	.	.	16b-\JJ	16b-\JJ	.
.	.	.	16b-\LL	16b-\LL	.
.	.	.	16b-\	16b-\	.
.	.	.	16b-\	16b-\	.
.	.	.	16b-\JJ	16b-\JJ	.
=2	=2	=2	=2	=2	=2
1r	1r	16e-/LL	8ee-\L	8ee-\L	.
.	.	16e-/	.	.	.
.	.	16e-/	8e-\J	8e-\J	.
.	.	16e-/JJ	.	.	.
.	.	16e-/LL	16ee-\LL	16ee-\LL	.
.	.	16e-/	16ff\	16ff\	.
.	.	16e-/	16gg\	16gg\	.
.	.	16e-/JJ	16ee-\JJ	16ee-\JJ	.
.	.	16b-\LL	16ff\LL	16ff\LL	.
.	.	16b-\	16ee-\	16ee-\	.
.	.	16b-\	16dd\	16dd\	.
.	.	16b-\JJ	16cc\JJ	16cc\JJ	.
.	.	16b-\LL	16b-/LL	16b-/LL	.
.	.	16b-\	16a-/	16a-/	.
.	.	16b-\	16g/	16g/	.
.	.	16b-\JJ	16f/JJ	16f/JJ	.
=3	=3	=3	=3	=3	=3
1r	16E-/LL	8ee-\L	8g/L	8g/L	.
.	16E-/	.	.	.	.
.	16E-/	8e-\J	8e-/J	8e-/J	.
.	16E-/JJ	.	.	.	.
.	16E-/LL	16ee-\LL	16gg\LL	16gg\LL	.
.	16E-/	16ff\	16aa-\	16aa-\	.
.	16E-/	16gg\	16bb-\	16bb-\	.
.	16E-/JJ	16ee-\JJ	16gg\JJ	16gg\JJ	.
.	16B-/LL	16ff\LL	16aa-\LL	16aa-\LL	.
.	16B-/	16ee-\	16gg\	16gg\	.
.	16B-/	16dd\	16ff\	16ff\	.
.	16B-/JJ	16cc\JJ	16ee-\JJ	16ee-\JJ	.
.	16B-/LL	16b-/LL	16dd\LL	16dd\LL	.
.	16B-/	16a-/	16cc\	16cc\	.
.	16B-/	16g/	16b-\	16b-\	.
.	16B-/JJ	16f/JJ	16a-\JJ	16a-\JJ	.
=4	=4	=4	=4	=4	=4
16EE-/LL	8e-/L	8g/L	8b-\L	8b-\L	.
16EE-/	.	.	.	.	.
16EE-/	8E-/J	8e-/J	8g\	8g\	.
16EE-/JJ	.	.	.	.	.
16EE-/LL	16e-\LL	16gg\LL	8b-\	8b-\	.
16EE-/	16f\	16aa-\	.	.	.
16EE-/	16g\	16bb-\	8ee-\J	8ee-\J	.
16EE-/JJ	16e-\JJ	16gg\JJ	.	.	.
16BB-/LL	16f\LL	16aa-\LL	16dd\LL	16dd\LL	7
16BB-/	16e-\	16gg\	16dd\	16dd\	.
16BB-/	16d\	16ff\	16dd\	16dd\	.
16BB-/JJ	16c\JJ	16ee-\JJ	16dd\JJ	16dd\JJ	.
16BB-/LL	16B-/LL	16dd\LL	16dd\LL	16dd\LL	.
16BB-/	16A-/	16cc\	16dd\	16dd\	.
16BB-/	16G/	16b-\	16dd\	16dd\	.
16BB-/JJ	16F/JJ	16a-\JJ	16dd\JJ	16dd\JJ	.
=5	=5	=5	=5	=5	=5
8E-/L	8G/L	8b-/L	16ee-\LL	16ee-\LL	.
.	.	.	16bb-\	16bb-\	.
8EE-/J	8E-/J	8g/J	16bb-\	16bb-\	.
.	.	.	16bb-\JJ	16bb-\JJ	.
4r	4r	4r	16bb-\LL	16bb-\LL	.
.	.	.	16bb-\	16bb-\	.
.	.	.	16bb-\	16bb-\	.
.	.	.	16bb-\JJ	16bb-\JJ	.
16E-\LL	16e-\LL	16gg\LL	16cc\LL	16cc\LL	6
16E-\	16e-\	16aa-\	16cc\	16cc\	.
16E-\	16e-\	16bb-\	16cc\	16cc\	.
16E-\JJ	16e-\JJ	16aa-\JJ	16cc\JJ	16cc\JJ	.
16E-\LL	16e-\LL	16gg\LL	16cc\LL	16cc\LL	.
16E-\	16e-\	16ff\	16cc\	16cc\	.
16E-\	16g\	16ee-\	16cc\	16cc\	.
16E-\JJ	16g\JJ	16dd\JJ	16cc\JJ	16cc\JJ	.
=6	=6	=6	=6	=6	=6
4F\	4a-\	4cc\	16aa-x\LL	16aa-\LL	.
.	.	.	16aa-x\	16aa-\	.
.	.	.	16aa-x\	16aa-\	.
.	.	.	16aa-x\JJ	16aa-\JJ	.
4r	4r	4r	16aa-x\LL	16aa-\LL	.
.	.	.	16aa-x\	16aa-\	.
.	.	.	16aa-x\	16aa-\	.
.	.	.	16aa-x\JJ	16aa-\JJ	.
16D\LL	16d\LL	16ff\LL	16b-\LL	16b-\LL	6
16D\	16d\	16gg\	16b-\	16b-\	.
16D\	16d\	16aa-\	16b-\	16b-\	.
16D\JJ	16d\JJ	16gg\JJ	16b-\JJ	16b-\JJ	.
16D\LL	16d\LL	16ff\LL	16b-\LL	16b-\LL	.
16D\	16d\	16ee-\	16b-\	16b-\	.
16D\	16f\	16dd\	16b-\	16b-\	.
16D\JJ	16f\JJ	16cc\JJ	16b-\JJ	16b-\JJ	.
=7	=7	=7	=7	=7	=7
4E-\	4g\	4b-\	16gg\LL	16gg\LL	.
.	.	.	16gg\	16gg\	.
.	.	.	16gg\	16gg\	.
.	.	.	16gg\JJ	16gg\JJ	.
4r	4r	16ee-\LL	16gg\LL	16gg\LL	.
.	.	16ee-\	16gg\	16gg\	.
.	.	16ee-\	16gg\	16gg\	.
.	.	16ee-\JJ	16gg\JJ	16gg\JJ	.
8BB-/L	8d\L	16ff\LL	16aa-\LL	16aa-\LL	7
.	.	16ff\	16aa-\	16aa-\	.
16C/L	16e-\L	16ff\	16aa-\	16aa-\	.
16D/JJ	16f\JJ	16ff\JJ	16aa-\JJ	16aa-\JJ	.
16E-\LL	16g\LL	16ee-\LL	16gg\LL	16gg\LL	.
16F\	16a-\	16ee-\	16gg\	16gg\	.
16G\	16b-\	16ee-\	16gg\	16gg\	.
16A-\JJ	16cc\JJ	16ee-\JJ	16gg\JJ	16gg\JJ	.
=8	=8	=8	=8	=8	=8
8B-\L	8f\L	16dd\LL	16ff\LL	16ff\LL	5 3
.	.	16dd\	16ff\	16ff\	.
8BB-\	8f\	16dd\	16ff\	16ff\	.
.	.	16dd\JJ	16ff\JJ	16ff\JJ	.
8BB-\	8e-\	16ee-\LL	16gg\LL	16gg\LL	6 4
.	.	16ee-\	16gg\	16gg\	.
8BB-\J	8e-\J	16ee-\	16gg\	16gg\	.
.	.	16ee-\JJ	16gg\JJ	16gg\JJ	.
8BB-/L	8d\L	16ff\LL	16aa-\LL	16aa-\LL	7
.	.	16ff\	16aa-\	16aa-\	.
16C/L	16e-\L	16ff\	16aa-\	16aa-\	.
16D/JJ	16f\JJ	16ff\JJ	16aa-\JJ	16aa-\JJ	.
16E-\LL	16g\LL	16ee-\LL	16gg\LL	16gg\LL	.
16F\	16a-\	16ee-\	16gg\	16gg\	.
16G\	16b-\	16ee-\	16gg\	16gg\	.
16A-\JJ	16cc\JJ	16ee-\JJ	16gg\JJ	16gg\JJ	.
=9	=9	=9	=9	=9	=9
8B-\L	8f\L	16dd\LL	16ff\LL	16ff\LL	5 3
.	.	16dd\	16ff\	16ff\	.
8BB-\	8f\	16dd\	16ff\	16ff\	.
.	.	16dd\JJ	16ff\JJ	16ff\JJ	.
8BB-\	8e-\	16ee-\LL	16gg\LL	16gg\LL	.
.	.	16ee-\	16gg\	16gg\	.
8BB-\J	8e-\J	16ee-\	16gg\	16gg\	.
.	.	16ee-\JJ	16gg\JJ	16gg\JJ	.
8BB-/L	8d\L	16ff\LL	16aa-\LL	16aa-\LL	7
.	.	16ff\	16aa-\	16aa-\	.
16C/L	16e-\L	16ff\	16aa-\	16aa-\	.
16D/JJ	16f\JJ	16ff\JJ	16aa-\JJ	16aa-\JJ	.
16E-\LL	16g\LL	16ee-\LL	16gg\LL	16gg\LL	.
16F\	16a-\	16ee-\	16gg\	16gg\	.
16G\	16b-\	16ee-\	16gg\	16gg\	.
16A-\JJ	16cc\JJ	16ee-\JJ	16gg\JJ	16gg\JJ	.
=10	=10	=10	=10	=10	=10
8B-\L	4f\	4dd\	4ff\	4ff\	.
16A-\L	.	.	.	.	.
16G\JJ	.	.	.	.	.
16F\LL	4r	4r	4r	4r	.
16E-\	.	.	.	.	.
16D\	.	.	.	.	.
16C\JJ	.	.	.	.	.
8BB-/L	8d\L	8B-/L	8bb-\L	8bb-\L	.
8BB-/	8d\	16c/L	16aa-\L	16aa-\L	.
.	.	16d/JJ	16gg\JJ	16gg\JJ	.
8BB-/	8d\	16e-/LL	16ff\LL	16ff\LL	.
.	.	16f/	16ee-\	16ee-\	.
8BB-/J	8d\J	16g/	16dd\	16dd\	.
.	.	16a-/JJ	16cc\JJ	16cc\JJ	.
=11	=11	=11	=11	=11	=11
8BB-/L	8d\L	8b-\L	8b-/L	8b-/L	.
8BB-/	8d\	16cc\L	16a-/L	16a-/L	.
.	.	16dd\JJ	16g/JJ	16g/JJ	.
8BB-/	8d\	16ee-\LL	16f/LL	16f/LL	.
.	.	16ff\	16e-/	16e-/	.
8BB-/J	8d\J	16gg\	16d/	16d/	.
.	.	16aa-\JJ	16c/JJ	16c/JJ	.
8B-\L	4d\	4bb-\	4B-/	4B-/	.
16A-\L	.	.	.	.	.
16G\JJ	.	.	.	.	.
16F\LL	4r	4r	4r	4r	.
16E-\	.	.	.	.	.
16D\	.	.	.	.	.
16C\JJ	.	.	.	.	.
=12	=12	=12	=12	=12	=12
16BB-/LL	16B-/LL	16ee-\LL	16gg\LL	16gg\LL	6 4
16BB-/	16B-/	16b-\	16ee-\	16ee-\	.
16BB-/	16B-/	16g\	16b-\	16b-\	.
16BB-/JJ	16B-/JJ	16b-\JJ	16ee-\JJ	16ee-\JJ	.
16BB-/LL	16B-/LL	16ee-\LL	16gg\LL	16gg\LL	.
16BB-/	16B-/	16b-\	16ee-\	16ee-\	.
16BB-/	16B-/	16g\	16b-\	16b-\	.
16BB-/JJ	16B-/JJ	16b-\JJ	16ee-\JJ	16ee-\JJ	.
16BB-/LL	16B-/LL	16ee-\LL	16gg\LL	16gg\LL	.
16BB-/	16B-/	16b-\	16ee-\	16ee-\	.
16BB-/	16B-/	16g\	16b-\	16b-\	.
16BB-/JJ	16B-/JJ	16b-\JJ	16ee-\JJ	16ee-\JJ	.
16BB-/LL	16B-/LL	16ee-\LL	16gg\LL	16gg\LL	.
16BB-/	16B-/	16b-\	16ee-\	16ee-\	.
16BB-/	16B-/	16g\	16b-\	16b-\	.
16BB-/JJ	16B-/JJ	16b-\JJ	16ee-\JJ	16ee-\JJ	.
=13	=13	=13	=13	=13	=13
16BB-/LL	16B-/LL	16ee-\LL	16ff\LL	16ff\LL	5 4
16BB-/	16B-/	16b-\	16ee-\	16ee-\	.
16BB-/	16B-/	16f\	16b-\	16b-\	.
16BB-/JJ	16B-/JJ	16b-\JJ	16ee-\JJ	16ee-\JJ	.
16BB-/LL	16B-/LL	16ee-\LL	16ff\LL	16ff\LL	.
16BB-/	16B-/	16b-\	16ee-\	16ee-\	.
16BB-/	16B-/	16f\	16b-\	16b-\	.
16BB-/JJ	16B-/JJ	16b-\JJ	16ee-\JJ	16ee-\JJ	.
16BB-/LL	16B-/LL	16ee-\LL	16ff\LL	16ff\LL	.
16BB-/	16B-/	16b-\	16ee-\	16ee-\	.
16BB-/	16B-/	16f\	16b-\	16b-\	.
16BB-/JJ	16B-/JJ	16b-\JJ	16ee-\JJ	16ee-\JJ	.
16BB-/LL	16B-/LL	16ee-\LL	16ff\LL	16ff\LL	.
16BB-/	16B-/	16b-\	16ee-\	16ee-\	.
16BB-/	16B-/	16f\	16b-\	16b-\	.
16BB-/JJ	16B-/JJ	16b-\JJ	16ee-\JJ	16ee-\JJ	.
=14	=14	=14	=14	=14	=14
16BB-/LL	16B-/LL	16dd\LL	16ff\LL	16ff\LL	.
16BB-/	16B-/	16b-\	16dd\	16dd\	.
16BB-/	16B-/	16f\	16b-\	16b-\	.
16BB-/JJ	16B-/JJ	16b-\JJ	16dd\JJ	16dd\JJ	.
16BB-/LL	16B-/LL	16dd\LL	16ff\LL	16ff\LL	.
16BB-/	16B-/	16b-\	16dd\	16dd\	.
16BB-/	16B-/	16f\	16b-\	16b-\	.
16BB-/JJ	16B-/JJ	16b-\JJ	16dd\JJ	16dd\JJ	.
16BB-/LL	16B-/LL	16dd\LL	16ff\LL	16ff\LL	.
16BB-/	16B-/	16b-\	16dd\	16dd\	.
16BB-/	16B-/	16f\	16b-\	16b-\	.
16BB-/JJ	16B-/JJ	16b-\JJ	16dd\JJ	16dd\JJ	.
16BB-/LL	16B-/LL	16dd\LL	16ff\LL	16ff\LL	.
16BB-/	16B-/	16b-\	16dd\	16dd\	.
16BB-/	16B-/	16f\	16b-\	16b-\	.
*>S14	*>S14	*>S14	*>S14	*>S14	*>S14
!! Selfridge-Field edition.
16BB-/JJ	16B-/JJ	16b-\JJ	16dd\JJ	16dd\JJ	.
*>M14	*>M14	*>M14	*>M14	*>M14	*>M14
!! Manchester partbooks.
16BB-/JJ	16B-/JJ	16ff\JJ	16ff\JJ	16ff\JJ	.
*>etc2	*>etc2	*>etc2	*>etc2	*>etc2	*>etc2
=15	=15	=15	=15	=15	=15
4EE-/	4B-/	8ee-\L	8ee-\L	8ee-\L	.
.	.	16dd\L	16dd\L	16dd\L	.
.	.	16cc\JJ	16cc\JJ	16cc\JJ	.
4r	4r	16b-/LL	16b-/LL	16b-/LL	.
.	.	16a-/	16a-/	16a-/	.
.	.	16g/	16g/	16g/	.
.	.	16f/JJ	16f/JJ	16f/JJ	.
8E-\L	8e-\L	4e-/	4e-/	4e-/	.
16D\L	16d\L	.	.	.	.
*strophe	*	*	*	*	*
*^	*	*	*	*	*
*^	*	*	*	*	*	*
*S/S	*S/M	*S/A	*	*	*	*	*
16C\JJ	16C\JJ	16C-\JJ	16c\JJ	.	.	.	.
*S/fin	*S/fin	*S/fin	*	*	*	*	*
*v	*v	*v	*	*	*	*	*
*S-	*	*	*	*	*
16BB-/LL	16B-/LL	4r	4r	4r	.
16AA-/	16A-/	.	.	.	.
16GG/	16G/	.	.	.	.
16FF/JJ	16F/JJ	.	.	.	.
=16	=16	=16	=16	=16	=16
4EE-/	4E-/	1r	1r	16ee-\LL	.
.	.	.	.	16gg\	.
.	.	.	.	16b-\	.
.	.	.	.	16gg\JJ	.
4EE-/	4r	.	.	16ee-\LL	.
.	.	.	.	16gg\	.
.	.	.	.	16b-\	.
.	.	.	.	16gg\JJ	.
4EE-/	2r	.	.	16ee-\LL	.
.	.	.	.	16gg\	.
.	.	.	.	16b-\	.
.	.	.	.	16gg\JJ	.
4EE-/	.	.	.	16ee-\LL	.
.	.	.	.	16gg\	.
.	.	.	.	16b-\	.
.	.	.	.	16gg\JJ	.
=17	=17	=17	=17	=17	=17
4EE-/	1r	1r	1r	16g/LL	.
.	.	.	.	16b-/	.
.	.	.	.	16e-/	.
.	.	.	.	16b-/JJ	.
4EE-/	.	.	.	16g/LL	.
.	.	.	.	16b-/	.
.	.	.	.	16e-/	.
.	.	.	.	16b-/JJ	.
4EE-/	.	.	.	16g/LL	.
.	.	.	.	16b-/	.
.	.	.	.	16e-/	.
.	.	.	.	16b-/JJ	.
4EE-/	.	.	.	16g/LL	.
.	.	.	.	16b-/	.
.	.	.	.	16e-/	.
.	.	.	.	16b-/JJ	.
=18	=18	=18	=18	=18	=18
4EE-/	1r	1r	1r	16B-/LL	.
.	.	.	.	16e-/	.
.	.	.	.	16G/	.
.	.	.	.	16e-/JJ	.
4EE-/	.	.	.	16B-/LL	.
.	.	.	.	16e-/	.
.	.	.	.	16G/	.
.	.	.	.	16e-/JJ	.
4EE-/	.	.	.	16B-/LL	.
.	.	.	.	16e-/	.
.	.	.	.	16G/	.
.	.	.	.	16e-/JJ	.
4EE-/	.	.	.	16B-/LL	.
.	.	.	.	16e-/	.
.	.	.	.	16G/	.
.	.	.	.	16e-/JJ	.
=19	=19	=19	=19	=19	=19
4E-\	1r	1r	1r	16g/LL	.
.	.	.	.	16b-/	.
.	.	.	.	16e-/	.
.	.	.	.	16b-/JJ	.
4D-\	.	.	.	16g/LL	6 4
.	.	.	.	16b-/	.
.	.	.	.	16e-/	.
.	.	.	.	16b-/JJ	.
4C/	.	.	.	16a-/LL	6
.	.	.	.	16cc/	.
.	.	.	.	16e-/	.
.	.	.	.	16cc/JJ	.
4AA-/	.	.	.	16a-/LL	.
.	.	.	.	16cc/	.
.	.	.	.	16e-/	.
.	.	.	.	16cc/JJ	.
=20	=20	=20	=20	=20	=20
4E-\	1r	1r	1r	16g/LL	.
.	.	.	.	16b-/	.
.	.	.	.	16e-/	.
.	.	.	.	16b-/JJ	.
4D-\	.	.	.	16g/LL	6 4
.	.	.	.	16b-/	.
.	.	.	.	16e-/	.
.	.	.	.	16b-/JJ	.
4C/	.	.	.	16a-/LL	6
.	.	.	.	16cc/	.
.	.	.	.	16e-/	.
.	.	.	.	16cc/JJ	.
4AA-/	.	.	.	16a-/LL	.
.	.	.	.	16cc/	.
.	.	.	.	16e-/	.
.	.	.	.	16cc/JJ	.
=21	=21	=21	=21	=21	=21
4E-\	1r	1r	1r	16g/LL	.
.	.	.	.	16b-/	.
.	.	.	.	16e-/	.
.	.	.	.	16b-/JJ	.
4r	.	.	.	16g/LL	.
.	.	.	.	16b-/	.
.	.	.	.	16e-/	.
.	.	.	.	16b-/JJ	.
4En\	.	.	.	16g/LL	6
.	.	.	.	16cc/	.
.	.	.	.	16en/	.
.	.	.	.	16cc/JJ	.
4C/	.	.	.	16g/LL	.
.	.	.	.	16cc/	.
.	.	.	.	16e/	.
.	.	.	.	16cc/JJ	.
=22	=22	=22	=22	=22	=22
4FF/	1r	1r	1r	16a-/LL	.
.	.	.	.	16cc/	.
.	.	.	.	16f/	.
.	.	.	.	16cc/JJ	.
4r	.	.	.	16a-/LL	.
.	.	.	.	16cc/	.
.	.	.	.	16f/	.
.	.	.	.	16cc/JJ	.
4En\	.	.	.	16g/LL	6
.	.	.	.	16cc/	.
.	.	.	.	16en/	.
.	.	.	.	16cc/JJ	.
4C/	.	.	.	16g/LL	n
.	.	.	.	16cc/	.
.	.	.	.	16e/	.
.	.	.	.	16cc/JJ	.
*>S23	*>S23	*>S23	*>S23	*>S23	*>S23
!! Selfridge-Field edition.
=23	=23	=23	=23	=23	=23
4FF/	1r	1r	1r	16a-/LL	.
.	.	.	.	16cc/	.
.	.	.	.	16f/	.
.	.	.	.	16cc/JJ	.
4r	.	.	.	16a-/LL	.
.	.	.	.	16cc/	.
.	.	.	.	16f/	.
.	.	.	.	16cc/JJ	.
4F#\	.	.	.	16an/LL	.
.	.	.	.	16cc/	.
.	.	.	.	16f#/	.
.	.	.	.	16cc/JJ	.
4D\	.	.	.	16a/LL	7 #
.	.	.	.	16cc/	.
.	.	.	.	16f#/	.
.	.	.	.	16cc/JJ	.
*>M23	*>M23	*>M23	*>M23	*>M23	*>M23
!! Manchester partbooks.
=23	=23	=23	=23	=23	=23
4FF/	1r	1r	1r	16a-/LL	.
.	.	.	.	16dd/	.
.	.	.	.	16f/	.
.	.	.	.	16dd/JJ	.
4r	.	.	.	16a-/LL	.
.	.	.	.	16dd/	.
.	.	.	.	16f/	.
.	.	.	.	16dd/JJ	.
4F#\	.	.	.	16an/LL	.
.	.	.	.	16dd/	.
.	.	.	.	16f#/	.
.	.	.	.	16dd/JJ	.
4D\	.	.	.	16a/LL	7 #
.	.	.	.	16dd/	.
.	.	.	.	16f#/	.
.	.	.	.	16dd/JJ	.
*>etc3	*>etc3	*>etc3	*>etc3	*>etc3	*>etc3
=24	=24	=24	=24	=24	=24
4GG/	1r	1r	1r	16b-\LL	.
.	.	.	.	16dd\	.
.	.	.	.	16g\	.
.	.	.	.	16dd\JJ	.
4r	.	.	.	16b-\LL	.
.	.	.	.	16dd\	.
.	.	.	.	16g\	.
.	.	.	.	16dd\JJ	.
4F#\	.	.	.	16an\LL	6
.	.	.	.	16dd\	.
.	.	.	.	16f#\	.
.	.	.	.	16dd\JJ	.
4D\	.	.	.	16a\LL	.
.	.	.	.	16dd\	.
.	.	.	.	16f#\	.
.	.	.	.	16dd\JJ	.
=25	=25	=25	=25	=25	=25
4GG/	1r	1r	1r	16b-\LL	.
.	.	.	.	16dd\	.
.	.	.	.	16g\	.
.	.	.	.	16dd\JJ	.
4r	.	.	.	16b-\LL	.
.	.	.	.	16dd\	.
.	.	.	.	16g\	.
.	.	.	.	16dd\JJ	.
4B-\	.	.	.	16dd\LL	6
.	.	.	.	16gg\	.
.	.	.	.	16b-\	.
.	.	.	.	16gg\JJ	.
4G\	.	.	.	16dd\LL	.
.	.	.	.	16gg\	.
.	.	.	.	16b-\	.
.	.	.	.	16gg\JJ	.
=26	=26	=26	=26	=26	=26
4E-\	1r	1r	1r	16ee-\LL	.
.	.	.	.	16gg\	.
.	.	.	.	16b-\	.
.	.	.	.	16gg\JJ	.
4GG/	.	.	.	16ee-\LL	6
.	.	.	.	16gg\	.
.	.	.	.	16b-\	.
.	.	.	.	16gg\JJ	.
4B-\	.	.	.	16dd\LL	.
.	.	.	.	16ff\	.
.	.	.	.	16b-\	.
.	.	.	.	16ff\JJ	.
4BB-/	.	.	.	16dd\LL	.
.	.	.	.	16ff\	.
.	.	.	.	16b-\	.
.	.	.	.	16ff\JJ	.
=27	=27	=27	=27	=27	=27
4EE-/	8G/L	16e-/LL	16e-/LL	4gg\ 4b-\ 4e-\	.
.	.	16e-/	16e-/	.	.
.	8G/	16e-/	16e-/	.	.
.	.	16e-/JJ	16e-/JJ	.	.
16E-\LL	8G/	16e-/LL	16e-/LL	4r	.
16F\	.	16e-/	16e-/	.	.
16G\	8G/J	16e-/	16e-/	.	.
16E-\JJ	.	16e-/JJ	16e-/JJ	.	.
16D/LL	16f\LL	16b-\LL	16b-\LL	2r	.
16C/	16e-\	16b-\	16b-\	.	.
16BB-/	16d\	16b-\	16b-\	.	.
16AA-/JJ	16c\JJ	16b-\JJ	16b-\JJ	.	.
16GG/LL	16B-/LL	16b-\LL	16b-\LL	.	.
16FF/	16A-/	16b-\	16b-\	.	.
16EE-/	16G/	16b-\	16b-\	.	.
16DD/JJ	16F/JJ	16b-\JJ	16b-\JJ	.	.
=28	=28	=28	=28	=28	=28
4EE-/	4G/	4ee-\	4ee-\	(16bb-\LL	.
.	.	.	.	16aa-\)	.
.	.	.	.	(16gg\	.
.	.	.	.	16ff\JJ)	.
4r	4r	4r	4r	(16gg\LL	.
.	.	.	.	16ff\)	.
.	.	.	.	(16ee-\	.
.	.	.	.	16dd\JJ)	.
2r	2r	2r	2r	(16ee-\LL	.
.	.	.	.	16dd\)	.
.	.	.	.	(16cc\	.
.	.	.	.	16b-\JJ)	.
.	.	.	.	(16cc/LL	.
.	.	.	.	16b-/)	.
.	.	.	.	(16a-/	.
.	.	.	.	16g/JJ)	.
*>S29	*>S29	*>S29	*>S29	*>S29	*>S29
!! Selfridge-Field edition.
=29	=29	=29	=29	=29	=29
8C/L	8c/L	2r	2r	16a-/LL	6
.	.	.	.	16e-/	.
16AA-/L	16A-/L	.	.	16c/	.
16BB-/JJ	16B-/JJ	.	.	16e-/JJ	.
8C/L	8c\L	.	.	16a-/LL	.
.	.	.	.	16e-/	.
8C/J	8c\J	.	.	16c/	.
.	.	.	.	16e-/JJ	.
4C/	4c\	8c/L	8c/L	16a-/LL	.
.	.	.	.	16e-/	.
.	.	16A-/L	16A-/L	16c/	.
.	.	16B-/JJ	16B-/JJ	16e-/JJ	.
4r	4r	8c/L	8c/L	16a-/LL	.
.	.	.	.	16e-/	.
.	.	8c/J	8c/J	16c/	.
.	.	.	.	16e-/JJ	.
=30	=30	=30	=30	=30	=30
1r	1r	4c/	4c/	(16ccc\LL	.
.	.	.	.	16bb-\)	.
.	.	.	.	(16aa-\	.
.	.	.	.	16gg\JJ)	.
.	.	4r	4r	(16aa-\LL	.
.	.	.	.	16gg\)	.
.	.	.	.	(16ff\	.
.	.	.	.	16ee-\JJ)	.
.	.	2r	2r	(16ff\LL	.
.	.	.	.	16ee-\)	.
.	.	.	.	(16dd\	.
.	.	.	.	16cc\JJ)	.
.	.	.	.	(16dd\LL	.
.	.	.	.	16cc\)	.
.	.	.	.	(16b-\	.
.	.	.	.	16a-\JJ)	.
=31	=31	=31	=31	=31	=31
8D/L	8d\L	2r	2r	16b-/LL	6
.	.	.	.	16f/	.
16BB-/L	16B-\L	.	.	16d/	.
16C/JJ	16c\JJ	.	.	16f/JJ	.
8D\L	8d\L	.	.	16b-/LL	6
.	.	.	.	16f/	.
8D\J	8d\J	.	.	16d/	.
.	.	.	.	16f/JJ	.
4D\	4d\	8d/L	8d/L	16b-/LL	.
.	.	.	.	16f/	.
.	.	16B-/L	16B-/L	16d/	.
.	.	16c/JJ	16c/JJ	16f/JJ	.
4r	4r	8d/L	8d/L	16b-/LL	.
.	.	.	.	16f/	.
.	.	8d/J	8d/J	16d/	.
.	.	.	.	16f/JJ	.
=32	=32	=32	=32	=32	=32
1r	1r	4d/	4d/	(16ddd\LL	.
.	.	.	.	16ccc\)	.
.	.	.	.	(16bb-\	.
.	.	.	.	16aa-\JJ)	.
.	.	4r	4r	(16bb-\LL	.
.	.	.	.	16aa-\)	.
.	.	.	.	(16gg\	.
.	.	.	.	16ff\JJ)	.
.	.	2r	2r	(16gg\LL	.
.	.	.	.	16ff\)	.
.	.	.	.	(16ee-\	.
.	.	.	.	16dd\JJ)	.
.	.	.	.	(16ee-\LL	.
.	.	.	.	16dd\)	.
.	.	.	.	(16cc\	.
.	.	.	.	16b-\JJ)	.
=33	=33	=33	=33	=33	=33
8E-\L	8e-\L	2r	2r	16cc/LL	6
.	.	.	.	16g/	.
16C\L	16c\L	.	.	16e-/	.
16D\JJ	16d\JJ	.	.	16g/JJ	.
8E-\L	8e-\L	.	.	16cc/LL	.
.	.	.	.	16g/	.
8E-\J	8e-\J	.	.	16e-/	.
.	.	.	.	16g/JJ	.
4E-\	4e-\	8e-/L	8e-/L	16cc/LL	.
.	.	.	.	16g/	.
.	.	16c/L	16c/L	16e-/	.
.	.	16d/JJ	16d/JJ	16g/JJ	.
4r	4r	8e-/L	8e-/L	16cc/LL	.
.	.	.	.	16g/	.
.	.	8e-/J	8e-/J	16e-/	.
.	.	.	.	16g/JJ	.
=34	=34	=34	=34	=34	=34
1r	1r	4e-/	4e-/	(16eee-\LL	.
.	.	.	.	16ddd\)	.
.	.	.	.	(16ccc\	.
.	.	.	.	16bb-\JJ)	.
.	.	4r	4r	(16ccc\LL	.
.	.	.	.	16bb-\)	.
.	.	.	.	(16aa-\	.
.	.	.	.	16gg\JJ)	.
.	.	2r	2r	(16aa-\LL	.
.	.	.	.	16gg\)	.
.	.	.	.	(16ff\	.
.	.	.	.	16ee-\JJ)	.
.	.	.	.	(16ff\LL	.
.	.	.	.	16ee-\)	.
.	.	.	.	(16dd\	.
.	.	.	.	16cc\JJ)	.
*>M29	*>M29	*>M29	*>M29	*>M29	*>M29
!! Manchester partbooks.
=29	=29	=29	=29	=29	=29
8C/L	2r	2r	2r	16a-/LL	6
.	.	.	.	16e-/	.
16AA-/L	.	.	.	16c/	.
16BB-/JJ	.	.	.	16e-/JJ	.
8C/L	.	.	.	16a-/LL	.
.	.	.	.	16e-/	.
8C/J	.	.	.	16c/	.
.	.	.	.	16e-/JJ	.
4C/	8c/L	8c/L	8c/L	16a-/LL	.
.	.	.	.	16e-/	.
.	16A-/L	16A-/L	16A-/L	16c/	.
.	16B-/JJ	16B-/JJ	16B-/JJ	16e-/JJ	.
4r	8c/L	8c/L	8c/L	16a-/LL	.
.	.	.	.	16e-/	.
.	8c/J	8c/J	8c/J	16c/	.
.	.	.	.	16e-/JJ	.
=30	=30	=30	=30	=30	=30
1r	4c/	4c/	4c/	(16ccc\LL	.
.	.	.	.	16bb-\)	.
.	.	.	.	(16aa-\	.
.	.	.	.	16gg\JJ)	.
.	4r	4r	4r	(16aa-\LL	.
.	.	.	.	16gg\)	.
.	.	.	.	(16ff\	.
.	.	.	.	16ee-\JJ)	.
.	2r	2r	2r	(16ff\LL	.
.	.	.	.	16ee-\)	.
.	.	.	.	(16dd\	.
.	.	.	.	16cc\JJ)	.
.	.	.	.	(16dd\LL	.
.	.	.	.	16cc\)	.
.	.	.	.	(16b-\	.
.	.	.	.	16a-\JJ)	.
=31	=31	=31	=31	=31	=31
8D/L	2r	2r	2r	16b-/LL	6
.	.	.	.	16f/	.
16BB-/L	.	.	.	16d/	.
16C/JJ	.	.	.	16f/JJ	.
8D\L	.	.	.	16b-/LL	6
.	.	.	.	16f/	.
8D\J	.	.	.	16d/	.
.	.	.	.	16f/JJ	.
4D\	8d/L	8d/L	8d/L	16b-/LL	.
.	.	.	.	16f/	.
.	16B-/L	16B-/L	16B-/L	16d/	.
.	16c/JJ	16c/JJ	16c/JJ	16f/JJ	.
4r	8d/L	8d/L	8d/L	16b-/LL	.
.	.	.	.	16f/	.
.	8d/J	8d/J	8d/J	16d/	.
.	.	.	.	16f/JJ	.
=32	=32	=32	=32	=32	=32
1r	4d/	4d/	4d/	(16ddd\LL	.
.	.	.	.	16ccc\)	.
.	.	.	.	(16bb-\	.
.	.	.	.	16aa-\JJ)	.
.	4r	4r	4r	(16bb-\LL	.
.	.	.	.	16aa-\)	.
.	.	.	.	(16gg\	.
.	.	.	.	16ff\JJ)	.
.	2r	2r	2r	(16gg\LL	.
.	.	.	.	16ff\)	.
.	.	.	.	(16ee-\	.
.	.	.	.	16dd\JJ)	.
.	.	.	.	(16ee-\LL	.
.	.	.	.	16dd\)	.
.	.	.	.	(16cc\	.
.	.	.	.	16b-\JJ)	.
=33	=33	=33	=33	=33	=33
8E-\L	2r	2r	2r	16cc/LL	6
.	.	.	.	16g/	.
16C\L	.	.	.	16e-/	.
16D\JJ	.	.	.	16g/JJ	.
8E-\L	.	.	.	16cc/LL	.
.	.	.	.	16g/	.
8E-\J	.	.	.	16e-/	.
.	.	.	.	16g/JJ	.
4E-\	8e-/L	8e-/L	8e-/L	16cc/LL	.
.	.	.	.	16g/	.
.	16c/L	16c/L	16c/L	16e-/	.
.	16d/JJ	16d/JJ	16d/JJ	16g/JJ	.
4r	8e-/L	8e-/L	8e-/L	16cc/LL	.
.	.	.	.	16g/	.
.	8e-/J	8e-/J	8e-/J	16e-/	.
.	.	.	.	16g/JJ	.
=34	=34	=34	=34	=34	=34
1r	4e-/	4e-/	4e-/	(16eee-\LL	.
.	.	.	.	16ddd\)	.
.	.	.	.	(16ccc\	.
.	.	.	.	16bb-\JJ)	.
.	4r	4r	4r	(16ccc\LL	.
.	.	.	.	16bb-\)	.
.	.	.	.	(16aa-\	.
.	.	.	.	16gg\JJ)	.
.	2r	2r	2r	(16aa-\LL	.
.	.	.	.	16gg\)	.
.	.	.	.	(16ff\	.
.	.	.	.	16ee-\JJ)	.
.	.	.	.	(16ff\LL	.
.	.	.	.	16ee-\)	.
.	.	.	.	(16dd\	.
.	.	.	.	16cc\JJ)	.
*>A29	*>A29	*>A29	*>A29	*>A29	*>A29
!! Amsterdam print.
=29	=29	=29	=29	=29	=29
8C/L	8c/L	2r	2r	16a-/LL	6
.	.	.	.	16e-/	.
16AA-/L	16A-/L	.	.	16c/	.
16BB-/JJ	16B-/JJ	.	.	16e-/JJ	.
8C/L	8c\L	.	.	16a-/LL	.
.	.	.	.	16e-/	.
8C/J	8c\J	.	.	16c/	.
.	.	.	.	16e-/JJ	.
4C/	4c\	8c/L	8c/L	16a-/LL	.
.	.	.	.	16e-/	.
.	.	16A-/L	16A-/L	16c/	.
.	.	16B-/JJ	16B-/JJ	16e-/JJ	.
4r	4r	8c/L	8c/L	16a-/LL	.
.	.	.	.	16e-/	.
.	.	8c/J	8c/J	16c/	.
.	.	.	.	16e-/JJ	.
=30	=30	=30	=30	=30	=30
1r	1r	4c/	4c/	(16ccc\LL	.
.	.	.	.	16bb-\)	.
.	.	.	.	(16aa-\	.
.	.	.	.	16gg\JJ)	.
.	.	4r	4r	(16aa-\LL	.
.	.	.	.	16gg\)	.
.	.	.	.	(16ff\	.
.	.	.	.	16ee-\JJ)	.
.	.	2r	2r	(16ff\LL	.
.	.	.	.	16ee-\)	.
.	.	.	.	(16dd\	.
.	.	.	.	16cc\JJ)	.
.	.	.	.	(16dd\LL	.
.	.	.	.	16cc\)	.
.	.	.	.	(16b-\	.
.	.	.	.	16a-\JJ)	.
=31	=31	=31	=31	=31	=31
8D/L	8d\L	2r	2r	16b-/LL	6
.	.	.	.	16f/	.
16BB-/L	16B-\L	.	.	16d/	.
16C/JJ	16c\JJ	.	.	16f/JJ	.
8D\L	8d\L	.	.	16b-/LL	6
.	.	.	.	16f/	.
8D\J	8d\J	.	.	16d/	.
.	.	.	.	16f/JJ	.
4D\	4d\	8d/L	8d/L	16b-/LL	.
.	.	.	.	16f/	.
.	.	16B-/L	16B-/L	16d/	.
.	.	16c/JJ	16c/JJ	16f/JJ	.
4r	4r	8d/L	8d/L	16b-/LL	.
.	.	.	.	16f/	.
.	.	8d/J	8d/J	16d/	.
.	.	.	.	16f/JJ	.
=32	=32	=32	=32	=32	=32
1r	1r	4e-/	4e-/	(16ddd\LL	.
.	.	.	.	16ccc\)	.
.	.	.	.	(16bb-\	.
.	.	.	.	16aa-\JJ)	.
.	.	4r	4r	(16bb-\LL	.
.	.	.	.	16aa-\)	.
.	.	.	.	(16gg\	.
.	.	.	.	16ff\JJ)	.
.	.	2r	2r	(16gg\LL	.
.	.	.	.	16ff\)	.
.	.	.	.	(16ee-\	.
.	.	.	.	16dd\JJ)	.
.	.	.	.	(16ee-\LL	.
.	.	.	.	16dd\)	.
.	.	.	.	(16cc\	.
.	.	.	.	16b-\JJ)	.
=33	=33	=33	=33	=33	=33
8E-\L	8e-\L	2r	2r	16cc/LL	6
.	.	.	.	16g/	.
16C\L	16c\L	.	.	16e-/	.
16D\JJ	16d\JJ	.	.	16g/JJ	.
8E-\L	8e-\L	.	.	16cc/LL	.
.	.	.	.	16g/	.
8E-\J	8e-\J	.	.	16e-/	.
.	.	.	.	16g/JJ	.
4E-\	4e-\	8e-/L	8e-/L	16cc/LL	.
.	.	.	.	16g/	.
.	.	16c/L	16c/L	16e-/	.
.	.	16d/JJ	16d/JJ	16g/JJ	.
4r	4r	8e-/L	8e-/L	16cc/LL	.
.	.	.	.	16g/	.
.	.	8e-/J	8e-/J	16e-/	.
.	.	.	.	16g/JJ	.
*>etc4	*>etc4	*>etc4	*>etc4	*>etc4	*>etc4
=34	=34	=34	=34	=34	=34
1r	1r	4e-/	4e-/	(16eee-\LL	.
.	.	.	.	16ddd\)	.
.	.	.	.	(16ccc\	.
.	.	.	.	16bb-\JJ)	.
.	.	4r	4r	(16ccc\LL	.
.	.	.	.	16bb-\)	.
.	.	.	.	(16aa-\	.
.	.	.	.	16gg\JJ)	.
.	.	2r	2r	(16aa-\LL	.
.	.	.	.	16gg\)	.
.	.	.	.	(16ff\	.
.	.	.	.	16ee-\JJ)	.
.	.	.	.	(16ff\LL	.
.	.	.	.	16ee-\)	.
.	.	.	.	(16dd\	.
.	.	.	.	16cc\JJ)	.
=35	=35	=35	=35	=35	=35
8G/L	1r	1r	1r	16b-\LL	6
.	.	.	.	16ee-\	.
8GG/	.	.	.	16ee-\	.
.	.	.	.	16gg\JJ	.
8GG/	.	.	.	16gg\LL	.
.	.	.	.	16bb-\	.
8G/J	.	.	.	16bb-\	.
.	.	.	.	16eee-\JJ	.
8G/L	.	.	.	16eee-\LL	6
.	.	.	.	16bb-\	.
8GG/	.	.	.	16bb-\	.
.	.	.	.	16gg\JJ	.
8GG/	.	.	.	16gg\LL	.
.	.	.	.	16eee-\	.
8G/J	.	.	.	16eee-\	.
.	.	.	.	16aan\JJ	.
=36	=36	=36	=36	=36	=36
8F/L	1r	1r	1r	16aan\LL	7 n
.	.	.	.	16ee-\	.
8FF/	.	.	.	16ee-\	.
.	.	.	.	16aa\JJ	.
8FF/	.	.	.	16aa\LL	.
.	.	.	.	16ccc\	.
8F/J	.	.	.	16ccc\	.
.	.	.	.	16aa\JJ	.
8F/L	.	.	.	16aa\LL	.
.	.	.	.	16ee-\	.
8FF/	.	.	.	16ee-\	.
.	.	.	.	16aa\JJ	.
8FF/	.	.	.	16aa\LL	.
.	.	.	.	16ccc\	.
8F/J	.	.	.	16ccc\	.
.	.	.	.	16dd\JJ	.
=37	=37	=37	=37	=37	=37
8B-\L	1r	1r	1r	16dd\LL	.
.	.	.	.	16ff\	.
8BB-\	.	.	.	16bb-\	.
.	.	.	.	16ff\JJ	.
8BB-\	.	.	.	16dd\LL	.
.	.	.	.	16ff\	.
8BB-\J	.	.	.	16bb-\	.
.	.	.	.	16ff\JJ	.
8F/L	.	.	.	16cc\LL	5 4
.	.	.	.	16ff\	.
8FF/	.	.	.	16bb-\	.
.	.	.	.	16ff\JJ	.
8FF/	.	.	.	16cc\LL	.
.	.	.	.	16ff\	.
8F/J	.	.	.	16bb-\	.
.	.	.	.	16ff\JJ	.
=38	=38	=38	=38	=38	=38
8F/L	1r	1r	1r	16cc\LL	n
.	.	.	.	16ff\	.
8FF/	.	.	.	16aan\	.
.	.	.	.	16ff\JJ	.
8FF/	.	.	.	16cc\LL	.
.	.	.	.	16ff\	.
8F/J	.	.	.	16aa\	.
.	.	.	.	16ff\JJ	.
4BB-/	.	.	.	16bb-\LL	.
.	.	.	.	16aa\	.
.	.	.	.	16gg\	.
.	.	.	.	16ff\JJ	.
4r	.	.	.	16ee-\LL	.
.	.	.	.	16dd\	.
.	.	.	.	16cc\	.
.	.	.	.	16b-\JJ	.
=39	=39	=39	=39	=39	=39
2r	1r	1r	2r	16an/LL	.
.	.	.	.	16g/	.
.	.	.	.	16f/	.
.	.	.	.	16e-/JJ	.
.	.	.	.	16d/LL	.
.	.	.	.	16c/	.
.	.	.	.	16B-/	.
.	.	.	.	16An/JJ	.
8BB-/L	.	.	16B-/LL	16B-/LL	.
.	.	.	16B-/	16B-/	.
8BB-/	.	.	16B-/	16B-/	.
.	.	.	16B-/JJ	16B-/JJ	.
8BB-/	.	.	16B-/LL	16B-/LL	.
.	.	.	16B-/	16B-/	.
8BB-/J	.	.	16B-/	16B-/	.
.	.	.	16B-/JJ	16B-/JJ	.
=40	=40	=40	=40	=40	=40
8AAn/L	1r	2r	16f/LL	16f/LL	6
.	.	.	16f/	16f/	.
8AA/	.	.	16f/	16f/	.
.	.	.	16f/JJ	16f/JJ	.
8AA/	.	.	16f/LL	16f/LL	.
.	.	.	16f/	16f/	.
8AA/J	.	.	16f/	16f/	.
.	.	.	16f/JJ	16f/JJ	.
8GG/L	.	16B-/LL	8b-/L	8b-/L	.
.	.	16B-/	.	.	.
8GG/	.	16B-/	8B-/J	8B-/J	.
.	.	16B-/JJ	.	.	.
8GG/	.	16B-/LL	16b-\LL	16b-\LL	.
.	.	16B-/	16cc\	16cc\	.
8GG/J	.	16B-/	16dd\	16dd\	.
.	.	16B-/JJ	16b-\JJ	16b-\JJ	.
=41	=41	=41	=41	=41	=41
8AAn/L	2r	16f/LL	16cc/LL	16cc/LL	6
.	.	16f/	16b-/	16b-/	.
8AA/	.	16f/	16an/	16an/	.
.	.	16f/JJ	16g/JJ	16g/JJ	.
8AA/	.	16f/LL	16f/LL	16f/LL	.
.	.	16f/	16e-/	16e-/	.
8AA/J	.	16f/	16d/	16d/	.
.	.	16f/JJ	16c/JJ	16c/JJ	.
4BB-/	16B-/LL	8b-/L	8d/L	8d/L	.
.	16B-/	.	.	.	.
.	16B-/	8B-/J	8B-/J	8B-/J	.
.	16B-/JJ	.	.	.	.
4r	16B-/LL	16b-\LL	16dd\LL	16dd\LL	.
.	16B-/	16cc\	16ee-\	16ee-\	.
.	16B-/	16dd\	16ff\	16ff\	.
.	16B-/JJ	16b-\JJ	16dd\JJ	16dd\JJ	.
=42	=42	=42	=42	=42	=42
2r	16f\LL	16cc/LL	16ee-\LL	16ee-\LL	.
.	16f\	16b-/	16dd\	16dd\	.
.	16f\	16an/	16cc\	16cc\	.
.	16f\JJ	16g/JJ	16b-\JJ	16b-\JJ	.
.	16f\LL	16f/LL	16an/LL	16an/LL	.
.	16f\	16e-/	16g/	16g/	.
.	16f\	16d/	16f/	16f/	.
.	16f\JJ	16c/JJ	16e-/JJ	16e-/JJ	.
16BB-/LL	8b-\L	8d/L	8f/L	8f/L	.
16BB-/	.	.	.	.	.
16BB-/	8B-\J	8B-/J	8d/J	8d/J	.
16BB-/JJ	.	.	.	.	.
16BB-/LL	16b-\LL	16dd\LL	4r	4r	.
16BB-/	16cc\	16ee-\	.	.	.
16BB-/	16dd\	16ff\	.	.	.
16BB-/JJ	16b-\JJ	16dd\JJ	.	.	.
=43	=43	=43	=43	=43	=43
16F\LL	16cc\LL	16ee-\LL	2r	2r	.
16F\	16b-\	16dd\	.	.	.
16F\	16an\	16cc\	.	.	.
16F\JJ	16g\JJ	16b-\JJ	.	.	.
16F\LL	16f\LL	16an/LL	.	.	.
16F\	16e-\	16g/	.	.	.
16F\	16d\	16f/	.	.	.
16F\JJ	16c\JJ	16e-/JJ	.	.	.
8B-\L	8d\L	8f/L	16bb-\LL	16bb-\LL	.
.	.	.	16bb-\	16bb-\	.
8BB-\J	8B-\J	8d/J	16bb-\	16bb-\	.
.	.	.	16bb-\JJ	16bb-\JJ	.
8r	8r	8r	16bb-\LL	16bb-\LL	.
.	.	.	16bb-\	16bb-\	.
8B-\	8f\	8dd\	16bb-\	16bb-\	.
.	.	.	16bb-\JJ	16bb-\JJ	.
=44	=44	=44	=44	=44	=44
8c\L	16en\LL	16gg\LL	8bb-\L	8bb-\L	7 n
.	16e\	16ff\	.	.	.
8C\	16e\	16een\	8een\	8een\	.
.	16e\JJ	16dd\JJ	.	.	.
8En\	16e\LL	16cc/LL	8gg\	8gg\	.
.	16e\	16b-/	.	.	.
8C\J	16e\	16a-/	8bb-\J	8bb-\J	.
.	16e\JJ	16g/JJ	.	.	.
8FF\L	16c\LL	8f\L	16aa-\LL	16aa-\LL	.
.	16c\	.	16aa-\	16aa-\	.
8F\	16c\	8a-\	16aa-\	16aa-\	.
.	16c\JJ	.	16aa-\JJ	16aa-\JJ	.
8A-\	16c\LL	8cc\	16aa-\LL	16aa-\LL	.
.	16c\	.	16aa-\	16aa-\	.
8F\J	16c\	[8ff\J	16aa-\	16aa-\	.
.	16c\JJ	.	16aa-\JJ	16aa-\JJ	.
=45	=45	=45	=45	=45	=45
8B-\L	16d\LL	16ff\LL]	8aa-\L	8aa-\L	7
.	16d\	16ee-\	.	.	.
8BB-\	16d\	16dd\	8dd\	8dd\	.
.	16d\JJ	16cc\JJ	.	.	.
8D\	16d\LL	16b-/LL	8ff\	8ff\	.
.	16d\	16a-/	.	.	.
8BB-\J	16d\	16g/	8aa-\J	8aa-\J	.
.	16d\JJ	16f/JJ	.	.	.
8EE-/L	16B-/LL	8e-/L	16gg\LL	16gg\LL	.
.	16B-/	.	16gg\	16gg\	.
8E-/	16B-/	8g/	16gg\	16gg\	.
.	16B-/JJ	.	16gg\JJ	16gg\JJ	.
8G/	16B-/LL	8b-/	16gg\LL	16gg\LL	.
.	16B-/	.	16gg\	16gg\	.
8E-/J	16B-/	[8ee-/J	16gg\	16gg\	.
.	16B-/JJ	.	16gg\JJ	16gg\JJ	.
=46	=46	=46	=46	=46	=46
8A-/L	16c\LL	16ee-\LL]	8gg\L	8gg\L	7
.	16c\	16dd\	.	.	.
8AA-/	16c\	16cc\	8cc\	8cc\	.
.	16c\JJ	16b-\JJ	.	.	.
8C/	16c\LL	16a-/LL	8ee-\	8ee-\	.
.	16c\	16g/	.	.	.
8AA-/J	16c\	16f/	8gg\J	8gg\J	.
.	16c\JJ	16e-/JJ	.	.	.
8DD/L	16Bn/LL	8d/L	16ff\LL	16ff\LL	n6
.	16B/	.	16ff\	16ff\	.
8D/	16B/	8f/	16ff\	16ff\	.
.	16B/JJ	.	16ff\JJ	16ff\JJ	.
8BBn/	16B/LL	8bn/	16ff\LL	16ff\LL	.
.	16B/	.	16ff\	16ff\	.
8D/J	16B/	[8dd/J	16ff\	16ff\	.
.	16B/JJ	.	16ff\JJ	16ff\JJ	.
=47	=47	=47	=47	=47	=47
8G/L	16Bn/LL	16dd\LL]	8ff\L	8ff\L	7 n
.	16B/	16cc\	.	.	.
8GG/	16B/	16bn\	8bn\	8bn\	.
.	16B/JJ	16an\JJ	.	.	.
8BBn/	16B/LL	16g/LL	8dd\	8dd\	.
.	16B/	16f/	.	.	.
8GG/J	16B/	16e-/	8ff\J	8ff\J	.
.	16B/JJ	16d/JJ	.	.	.
8CC/L	16G/LL	8c/L	16ee-\LL	16ee-\LL	.
.	16G/	.	16ee-\	16ee-\	.
8C/	16G/	8e-/	16ee-\	16ee-\	.
.	16G/JJ	.	16ee-\JJ	16ee-\JJ	.
8E-/	16G/LL	8g/	16ee-\LL	16ee-\LL	.
.	16G/	.	16ee-\	16ee-\	.
8C/J	16G/	[8cc/J	16ee-\	16ee-\	.
.	16G/JJ	.	16ee-\JJ	16ee-\JJ	.
*>S48	*>S48	*>S48	*>S48	*>S48	*>S48
!! Selfridge-Field edition.
=48	=48	=48	=48	=48	=48
8F#/L	16An/LL	16cc/LL]	8ee-\L	8ee-\L	7 n
.	16A/	16b-/	.	.	.
8FF#/	16A/	16an/	8an\	8an\	.
.	16A/JJ	16g/JJ	.	.	.
8AAn/	16A/LL	16f#/LL	8cc\	8cc\	.
.	16A/	16en/	.	.	.
8FF#/J	16A/	16d/	8ee-\J	8ee-\J	.
.	16A/JJ	16c/JJ	.	.	.
8FFn/L	16F/LL	16a-/LL	8dd-\L	8dd-\L	b6 b
.	16F/	16a-/	.	.	.
8Fn/	16F/	16a-/	8ff\J	8ff\J	.
.	16F/JJ	16a-/JJ	.	.	.
8F/	16F/LL	16a-/LL	4aa-\	4aa-\	.
.	16F/	16a-/	.	.	.
8FF/J	16F/	16a-/	.	.	.
.	16F/JJ	16a-/JJ	.	.	.
*>A48	*>A48	*>A48	*>A48	*>A48	*>A48
!! Amsterdam print.
=48	=48	=48	=48	=48	=48
8F#/L	16An/LL	16cc/LL]	8ee-\L	16ee-\LL	7 n
.	16A/	16b-/	.	16ee-\	.
8FF#/	16A/	16an/	8an\	16an\	.
.	16A/JJ	16g/JJ	.	16a\	.
8AAn/	16A/LL	16f#/LL	8cc\	16cc\	.
.	16A/	16en/	.	16cc\	.
8FF#/J	16A/	16d/	8ee-\J	16ee-\	.
.	16A/JJ	16c/JJ	.	16ee-\JJ	.
8FF#Y/L	16F/LL	16a-/LL	8dd-\L	8dd-\L	b6 b
.	16F/	16a-/	.	.	.
8F#Y/	16F/	16a-/	8ff\J	8ff\J	.
.	16F/JJ	16a-/JJ	.	.	.
8F#Y/	16F/LL	16a-/LL	4aa-\	4aa-\	.
.	16F/	16a-/	.	.	.
8FF#Y/J	16F/	16a-/	.	.	.
.	16F/JJ	16a-/JJ	.	.	.
*>etc5	*>etc5	*>etc5	*>etc5	*>etc5	*>etc5
=49	=49	=49	=49	=49	=49
8FF/L	16f\LL	16a-/LL	8r	8r	5
.	16f\	16a-/	.	.	.
8F/	16f\	16a-/	8cc\L	8cc\L	.
.	16f\JJ	16a-/JJ	.	.	.
8F/	16f\LL	16a-/LL	8ff\	8ff\	.
.	16f\	16a-/	.	.	.
8FF/J	16f\	16a-/	8aa-\J	8aa-\J	.
.	16f\JJ	16a-/JJ	.	.	.
8FF/L	16d\LL	16g/LL	8bn\L	8bn\L	6 n4 2
.	16d\	16g/	.	.	.
8F/	16d\	16g/	8g\	8g\	.
.	16d\JJ	16g/JJ	.	.	.
8F/	16d\LL	16g/LL	8b\	8b\	.
.	16d\	16g/	.	.	.
8FF/J	16d\	16g/	8dd\J	8dd\J	.
.	16d\JJ	16g/JJ	.	.	.
=50	=50	=50	=50	=50	=50
8EE-/L	16e-\LL	16g/LL	16cc\LL	16cc\LL	6
.	16e-\	16g/	16cc\	16cc\	.
8E-/	16e-\	16g/	16cc\	16cc\	.
.	16e-\JJ	16g/JJ	16cc\JJ	16cc\JJ	.
8E-/	16e-\LL	16g/LL	16cc\LL	16cc\LL	.
.	16e-\	16g/	16cc\	16cc\	.
8EE-/J	16e-\	16g/	16cc\	16cc\	.
.	16e-\JJ	16g/JJ	16cc\JJ	16cc\JJ	.
8FF/L	16d\LL	16a-/LL	16cc\LL	16cc\LL	6 5
.	16d\	16a-/	16cc\	16cc\	.
8F/	16d\	16a-/	16cc\	16cc\	.
.	16d\JJ	16a-/JJ	16cc\JJ	16cc\JJ	.
8F/	16d\LL	16a-/LL	16cc\LL	16cc\LL	.
.	16d\	16a-/	16cc\	16cc\	.
8FF/J	16d\	16a-/	16cc\	16cc\	.
.	16d\JJ	16a-/JJ	16cc\JJ	16cc\JJ	.
=51	=51	=51	=51	=51	=51
8GG/L	16d\LL	16g/LL	16bn\LL	16bn\LL	n
.	16d\	16g/	16b\	16b\	.
8G/	16d\	16g/	16b\	16b\	.
.	16d\JJ	16g/JJ	16b\JJ	16b\JJ	.
8G/	16d\LL	16g/LL	16b\LL	16b\LL	.
.	16d\	16g/	16b\	16b\	.
8GG/J	16d\	16g/	16b\	16b\	.
.	16d\JJ	16g/JJ	16b\JJ	16b\JJ	.
4C/	4e-\	4g/	4cc\	16cc\LL	.
.	.	.	.	(32dd\L	.
.	.	.	.	32ee-\	.
.	.	.	.	32ff\	.
.	.	.	.	32gg\	.
.	.	.	.	32aan\	.
.	.	.	.	32bbn\JJJ	.
4r	4r	4r	4r	16ccc\LL)	.
.	.	.	.	16gg\	.
.	.	.	.	16ee-\	.
.	.	.	.	16gg\JJ	.
*>S52	*>S52	*>S52	*>S52	*>S52	*>S52
!! Selfridge-Field edition.
=52	=52	=52	=52	=52	=52
4C/	4c\	4ee-\	4gg\	16ccc\LL	.
.	.	.	.	16gg\	.
.	.	.	.	16ee-\	.
.	.	.	.	16gg\JJ	.
*>M52	*>M52	*>M52	*>M52	*>M52	*>M52
!! Manchester partbooks.
=52	=52	=52	=52	=52	=52
4C/	4e-\	4g/	4cc\	16cc\LL	.
.	.	.	.	(32dd\L	.
.	.	.	.	32ee-\	.
.	.	.	.	32ff\	.
.	.	.	.	32gg\	.
.	.	.	.	32aan\	.
.	.	.	.	32bbn\JJJ	.
*>etc6	*>etc6	*>etc6	*>etc6	*>etc6	*>etc6
4r	4r	4r	4r	16ccc\LL	.
.	.	.	.	16gg\	.
.	.	.	.	16ee-\	.
.	.	.	.	16gg\JJ	.
4C/	4c\	4ee-\	4gg\	16cc/LL	.
.	.	.	.	16g/	.
.	.	.	.	16e-/	.
.	.	.	.	16g/JJ	.
4r	4r	4r	4r	16cc/LL	.
.	.	.	.	16g/	.
.	.	.	.	16e-/	.
.	.	.	.	16g/JJ	.
=53	=53	=53	=53	=53	=53
2r	2r	2r	2r	16cc/LL	.
.	.	.	.	16g/	.
.	.	.	.	16e-/	.
.	.	.	.	16g/JJ	.
.	.	.	.	16cc/LL	.
.	.	.	.	16g/	.
.	.	.	.	16e-/	.
.	.	.	.	16g/JJ	.
8C/L	8e-\L	16r	16r	4c/	.
.	.	16ee-\LL	16gg\LL	.	.
8C/	8e-\	16dd\	16ff\	.	.
.	.	16cc\JJ	16ee-\JJ	.	.
8C/	8e-\	16bn/LL	16dd\LL	4r	.
.	.	16an/	16cc\	.	.
8C/J	8e-\J	16g/	16bn\	.	.
.	.	16f/JJ	16an\JJ	.	.
=54	=54	=54	=54	=54	=54
4C/	4e-\	4e-/	4g/	16gg\LL	.
.	.	.	.	16cc\	.
.	.	.	.	16e-\	.
.	.	.	.	16cc\JJ	.
4r	4r	4r	4r	16gg\LL	.
.	.	.	.	16cc\	.
.	.	.	.	16e-\	.
.	.	.	.	16cc\JJ	.
2r	2r	2r	2r	16gg\LL	.
.	.	.	.	16cc\	.
.	.	.	.	16e-\	.
.	.	.	.	16cc\JJ	.
.	.	.	.	16gg\LL	.
.	.	.	.	16cc\	.
.	.	.	.	16e-\	.
.	.	.	.	16cc\JJ	.
=55	=55	=55	=55	=55	=55
8F\L	8c\L	16r	16r	4aa-\ 4cc\ 4f\	.
.	.	16ff\LL	16aa-\LL	.	.
8F\	8c\	16ee-\	16gg\	.	.
.	.	16dd\JJ	16ff\JJ	.	.
8F\	8c\	16cc/LL	16ee-\LL	4r	.
.	.	16b-/	16dd\	.	.
8F\J	8c\J	16a-/	16cc\	.	.
.	.	16g/JJ	16b-\JJ	.	.
4B-\	4d\	4f/	4a-/	16aa-\LL	7
.	.	.	.	16b-\	.
.	.	.	.	16d\	.
.	.	.	.	16b-\JJ	.
4r	4r	4r	4r	16aa-\LL	.
.	.	.	.	16b-\	.
.	.	.	.	16d\	.
.	.	.	.	16b-\JJ	.
=56	=56	=56	=56	=56	=56
2r	2r	2r	2r	16aa-\LL	.
.	.	.	.	16b-\	.
.	.	.	.	16d\	.
.	.	.	.	16b-\JJ	.
.	.	.	.	16aa-\LL	.
.	.	.	.	16b-\	.
.	.	.	.	16d\	.
.	.	.	.	16b-\JJ	.
8E-\L	8B-/L	16r	16r	4gg\ 4b-\ 4e-\	.
.	.	16ee-\LL	16gg\LL	.	.
8E-\	8B-/	16dd\	16ff\	.	.
.	.	16cc\JJ	16ee-\JJ	.	.
8E-\	8B-/	16b-/LL	16dd\LL	4r	.
.	.	16a-/	16cc\	.	.
8E-\J	8B-/J	16g/	16b-\	.	.
.	.	16f/JJ	16a-\JJ	.	.
=57	=57	=57	=57	=57	=57
4E-\	4c\	4e-/	4g/	16gg\LL	6
.	.	.	.	16cc\	.
.	.	.	.	16e-\	.
.	.	.	.	16cc\JJ	.
4r	4r	4r	4r	16gg\LL	.
.	.	.	.	16cc\	.
.	.	.	.	16e-\	.
.	.	.	.	16cc\JJ	.
2r	2r	2r	2r	16gg\LL	.
.	.	.	.	16cc\	.
.	.	.	.	16e-\	.
.	.	.	.	16cc\JJ	.
.	.	.	.	16gg\LL	.
.	.	.	.	16cc\	.
.	.	.	.	16e-\	.
.	.	.	.	16cc\JJ	.
=58	=58	=58	=58	=58	=58
8GG/L	8Bn/L	16r	16r	16ff\LL	7 n
.	.	16bn/LL	16dd\LL	16bn\	.
8GG/	8B/	16an/	16cc\	16d\	.
.	.	16g/JJ	16bn\JJ	16b\JJ	.
8GG/	8B/	16f/LL	16an/LL	16ff\LL	.
.	.	16e-/	16g/	16b\	.
8GG/J	8B/J	16d/	16f/	16d\	.
.	.	16c/JJ	16e-/JJ	16b\JJ	.
4GG/	4B/	4Bn/	4d/	16ff\LL	.
.	.	.	.	16b\	.
.	.	.	.	16d\	.
.	.	.	.	16b\JJ	.
4r	4r	4r	4r	16ff\LL	.
.	.	.	.	16b\	.
.	.	.	.	16d\	.
.	.	.	.	16b\JJ	.
=59	=59	=59	=59	=59	=59
8C/L	8G/L	16r	16r	16een\LL	7 n
.	.	16een\LL	16gg\LL	16b-\	.
8C/	8G/	16dd\	16ff\	16g\	.
.	.	16cc\JJ	16een\JJ	16b-\JJ	.
8C/	8G/	16b-/LL	16dd\LL	16ee\LL	.
.	.	16a-/	16cc\	16b-\	.
8C/J	8G/J	16g/	16b-\	16g\	.
.	.	16f/JJ	16a-\JJ	16b-\JJ	.
4C/	4c\	4en/	4g/	16ee\LL	.
.	.	.	.	16b-\	.
.	.	.	.	16g\	.
.	.	.	.	16b-\JJ	.
4r	4r	4r	4r	16ee\LL	.
.	.	.	.	16b-\	.
.	.	.	.	16g\	.
.	.	.	.	16b-\JJ	.
=60	=60	=60	=60	=60	=60
8FF/L	8c\L	16r	16r	16ff\LL	.
.	.	16ff\LL	16aa-\LL	16cc\	.
8FF/	8c\	16ee-\	16gg\	16a-\	.
.	.	16dd\JJ	16ff\JJ	16cc\JJ	.
8FF/	8c\	16cc/LL	16ee-\LL	16ff\LL	.
.	.	16b-/	16dd\	16cc\	.
8FF/J	8c\J	16a-/	16cc\	16a-\	.
.	.	16g/JJ	16b-\JJ	16cc\JJ	.
4FF/	4c\	4f/	4a-/	16ff\LL	.
.	.	.	.	16cc\	.
.	.	.	.	16a-\	.
.	.	.	.	16cc\JJ	.
4r	4r	4r	4r	16ff\LL	.
.	.	.	.	16cc\	.
.	.	.	.	16a-\	.
.	.	.	.	16cc\JJ	.
=61	=61	=61	=61	=61	=61
*	*strophe	*	*	*	*
*	*^	*	*	*	*
*	*^	*	*	*	*	*
*	*S/S	*S/A	*S/M	*	*	*	*
4D\	4d\	4d\	4An/	16r	16r	16ff#\LL	7 #
*	*S/fin	*S/fin	*S/fin	*	*	*	*
*	*v	*v	*v	*	*	*	*
*	*S-	*	*	*	*
.	.	16dd\LL	16dd\LL	16cc\	.
.	.	16cc\	16cc\	16d\	.
.	.	16b-\JJ	16b-\JJ	16cc\JJ	.
4r	4r	16an/LL	16an/LL	16ff#\LL	.
.	.	16g/	16g/	16cc\	.
.	.	16f#/	16f#/	16d\	.
.	.	16en/JJ	16en/JJ	16cc\JJ	.
16r	16r	4d/	4d/	16aa\LL	.
16d\LL	16dd\LL	.	.	16cc\	7 #
16c\	16cc\	.	.	16d\	.
16B-\JJ	16b-\JJ	.	.	16cc\JJ	.
16An\LL	16an\LL	4r	4r	16aan\LL	.
16G\	16g\	.	.	16cc\	.
16F#\	16f#\	.	.	16d\	.
16En\JJ	16en\JJ	.	.	16cc\JJ	.
=62	=62	=62	=62	=62	=62
4D\	4d\	16r	16r	16aan\LL	6 5
.	.	16dd\LL	16dd\LL	16b-\	.
.	.	16cc\	16cc\	16d\	.
.	.	16b-\JJ	16b-\JJ	16b-\JJ	.
4r	4r	16an/LL	16an/LL	16aa\LL	.
.	.	16g/	16g/	16b-\	.
.	.	16f#/	16f#/	16d\	.
.	.	16en/JJ	16en/JJ	16b-\JJ	.
16r	16r	4d/	4d/	16gg\LL	.
16d\LL	16dd\LL	.	.	16b-\	6 4
16c\	16cc\	.	.	16d\	.
16B-\JJ	16b-\JJ	.	.	16b-\JJ	.
16An\LL	16an\LL	4r	4r	16gg\LL	.
16G\	16g\	.	.	16b-\	.
16F#\	16f#\	.	.	16d\	.
16En\JJ	16en\JJ	.	.	16b-\JJ	.
=63	=63	=63	=63	=63	=63
4D\	4d\	16r	16r	16ccc\LL	7 5 #
.	.	16dd\LL	16dd\LL	16an\	.
.	.	16cc\	16cc\	16d\	.
.	.	16b-\JJ	16b-\JJ	16a\JJ	.
4r	4r	16an/LL	16an/LL	16ccc\LL	.
.	.	16g/	16g/	16a\	.
.	.	16f#/	16f#/	16d\	.
.	.	16en/JJ	16en/JJ	16a\JJ	.
16r	16r	4d/	4d/	16ccc\LL	.
16d\LL	16dd\LL	.	.	16ff#\	7 5 #
16c\	16cc\	.	.	16d\	.
16B-\JJ	16b-\JJ	.	.	16ff#\JJ	.
16An\LL	16an\LL	4r	4r	16ccc\LL	.
16G\	16g\	.	.	16ff#\	.
16F#\	16f#\	.	.	16d\	.
16En\JJ	16en\JJ	.	.	16ff#\JJ	.
=64	=64	=64	=64	=64	=64
4D\	4d\	16r	16r	16ccc\LL	7 4
.	.	16dd\LL	16dd\LL	16gg\	.
.	.	16cc\	16cc\	16d\	.
.	.	16b-\JJ	16b-\JJ	16gg\JJ	.
4r	4r	16an/LL	16an/LL	16ccc\LL	.
.	.	16g/	16g/	16gg\	.
.	.	16f#/	16f#/	16d\	.
.	.	16en/JJ	16en/JJ	16gg\JJ	.
16r	16r	4d/	4d/	16bb-\LL	.
16d\LL	16dd\LL	.	.	16gg\	6 4
16c\	16cc\	.	.	16d\	.
16B-\JJ	16b-\JJ	.	.	16gg\JJ	.
16An\LL	16an\LL	4r	4r	16bb-\LL	.
16G\	16g\	.	.	16gg\	.
16F#\	16f#\	.	.	16d\	.
16En\JJ	16en\JJ	.	.	16gg\JJ	.
=65	=65	=65	=65	=65	=65
4D\	4d\	16r	16r	16aan\LL	5 4
.	.	16dd\LL	16dd\LL	16gg\	.
.	.	16cc\	16cc\	16d\	.
.	.	16b-\JJ	16b-\JJ	16gg\JJ	.
4r	4r	16an/LL	16an/LL	16aa\LL	.
.	.	16g/	16g/	16gg\	.
.	.	16f#/	16f#/	16d\	.
.	.	16en/JJ	16en/JJ	16gg\JJ	.
16d\LL	16dd\LL	4d/	4d/	16aa\LL	5 #
16c\	16cc\	.	.	16ff#\	.
16B-\	16b-\	.	.	16d\	.
16An\JJ	16an\JJ	.	.	16ff#\JJ	.
16G\LL	16g\LL	4r	4r	16aa\LL	.
16F#\	16f#\	.	.	16ff#\	.
16En\	16en\	.	.	16d\	.
16D\JJ	16d\JJ	.	.	16ff#\JJ	.
=66	=66	=66	=66	=66	=66
4GG/	4G/	1r	16g/LL	4bb-/ 4gg/ 4d/ 4G/	.
.	.	.	16g/	.	.
.	.	.	16g/	.	.
.	.	.	16g/JJ	.	.
4r	4r	.	16g/LL	16g/LL	.
.	.	.	16g/	16g/	.
.	.	.	16g/	16g/	.
.	.	.	16g/JJ	16g/JJ	.
2r	2r	.	16dd\LL	16dd\LL	.
.	.	.	16dd\	16dd\	.
.	.	.	16dd\	16dd\	.
.	.	.	16dd\JJ	16dd\JJ	.
.	.	.	16dd\LL	16dd\LL	.
.	.	.	16dd\	16dd\	.
.	.	.	16dd\	16dd\	.
.	.	.	16dd\JJ	16dd\JJ	.
=67	=67	=67	=67	=67	=67
1r	1r	16g/LL	8gg\L	8gg\L	.
.	.	16g/	.	.	.
.	.	16g/	8g\J	8g\J	.
.	.	16g/JJ	.	.	.
.	.	16g/LL	16gg\LL	16gg\LL	.
.	.	16g/	16aan\	16aan\	.
.	.	16g/	16bb-\	16bb-\	.
.	.	16g/JJ	16gg\JJ	16gg\JJ	.
.	.	16dd\LL	16aa\LL	16aa\LL	.
.	.	16dd\	16gg\	16gg\	.
.	.	16dd\	16ff#\	16ff#\	.
.	.	16dd\JJ	16een\JJ	16een\JJ	.
.	.	16dd\LL	16dd\LL	16dd\LL	.
.	.	16dd\	16cc\	16cc\	.
.	.	16dd\	16b-\	16b-\	.
.	.	16dd\JJ	16an\JJ	16an\JJ	.
=68	=68	=68	=68	=68	=68
1r	16G/LL	8gg\L	8b-/L	8b-/L	.
.	16G/	.	.	.	.
.	16G/	8g\J	8g/J	8g/J	.
.	16G/JJ	.	.	.	.
.	16G/LL	16gg\LL	16bb-\LL	16bb-\LL	.
.	16G/	16aan\	16ccc\	16ccc\	.
.	16G/	16bb-\	16ddd\	16ddd\	.
.	16G/JJ	16gg\JJ	16bb-\JJ	16bb-\JJ	.
.	16d\LL	16aa\LL	16ccc\LL	16ccc\LL	.
.	16d\	16gg\	16bb-\	16bb-\	.
.	16d\	16ff#\	16aan\	16aan\	.
.	16d\JJ	16een\JJ	16gg\JJ	16gg\JJ	.
.	16d\LL	16dd\LL	16ff#\LL	16ff#\LL	.
.	16d\	16cc\	16een\	16een\	.
.	16d\	16b-\	16dd\	16dd\	.
.	16d\JJ	16an\JJ	16cc\JJ	16cc\JJ	.
=69	=69	=69	=69	=69	=69
16GG/LL	8g\L	8b-/L	8dd\L	8dd\L	.
16GG/	.	.	.	.	.
16GG/	8G\J	8g/J	8b-\	8b-\	.
16GG/JJ	.	.	.	.	.
16GG/LL	16g\LL	16bb-\LL	8dd\	8dd\	.
16GG/	16an\	16ccc\	.	.	.
16GG/	16b-\	16ddd\	8gg\J	8gg\J	.
16GG/JJ	16g\JJ	16bb-\JJ	.	.	.
16D\LL	16a\LL	16ccc\LL	16ff#\LL	16ff#\LL	#
16D\	16g\	16bb-\	16ff#\	16ff#\	.
16D\	16f#\	16aan\	16ff#\	16ff#\	.
16D\JJ	16en\JJ	16gg\JJ	16ff#\JJ	16ff#\JJ	.
16D\LL	16d/LL	16ff#\LL	16ff#\LL	16ff#\LL	.
16D\	16c/	16een\	16ff#\	16ff#\	.
16D\	16B-/	16dd\	16ff#\	16ff#\	.
16D\JJ	16An/JJ	16cc\JJ	16ff#\JJ	16ff#\JJ	.
=70	=70	=70	=70	=70	=70
4G\	4B-/	4dd\	4gg\	16gg\LL	.
.	.	.	.	16dd\	.
.	.	.	.	16gg\	.
.	.	.	.	16bb-\JJ	.
4r	4r	4r	4r	16gg\LL	.
.	.	.	.	16dd\	.
.	.	.	.	16gg\	.
.	.	.	.	16bb-\JJ	.
16F#\LL	16d\LL	16aan\LL	16dd\LL	16dd\LL	6
16F#\	16d\	16aa\	16dd\	16dd\	.
16F#\	16d\	16aa\	16dd\	16dd\	.
16F#\JJ	16d\JJ	16aa\JJ	16dd\JJ	16dd\JJ	.
16F#\LL	16d\LL	16aa\LL	16cc\LL	16cc\LL	6 5
16F#\	16d\	16aa\	16cc\	16cc\	.
16F#\	16d\	16aa\	16cc\	16cc\	.
16F#\JJ	16d\JJ	16aa\JJ	16cc\JJ	16cc\JJ	.
=71	=71	=71	=71	=71	=71
4Fn\	4d\	4gg\	4bn\	(32bn\LLL	6 n4
.	.	.	.	32dd\	.
.	.	.	.	32cc\	.
.	.	.	.	32b\	.
.	.	.	.	32cc\	.
.	.	.	.	32dd\	.
.	.	.	.	32ee-\	.
.	.	.	.	32ff\JJJ)	.
4r	4r	4r	4r	16gg\LL	.
.	.	.	.	16ff\	.
.	.	.	.	16ee-\	.
.	.	.	.	16dd\JJ	.
16En\LL	16c\LL	16gg\LL	16cc\LL	16cc\LL	.
16E\	16c\	16gg\	16cc\	16cc\	.
16E\	16c\	16gg\	16cc\	16cc\	.
16E\JJ	16c\JJ	16gg\JJ	16cc\JJ	16cc\JJ	.
16E\LL	16c\LL	16gg\LL	16b-\LL	16b-\LL	6 5
16E\	16c\	16gg\	16b-\	16b-\	.
16E\	16c\	16gg\	16b-\	16b-\	.
16E\JJ	16c\JJ	16gg\JJ	16b-\JJ	16b-\JJ	.
=72	=72	=72	=72	=72	=72
4E-\	4c\	4ff\	4an/	(32an\LLL	6 n4
.	.	.	.	32cc\	.
.	.	.	.	32b-\	.
.	.	.	.	32a\	.
.	.	.	.	32b-\	.
.	.	.	.	32cc\	.
.	.	.	.	32dd\	.
.	.	.	.	32ee-\JJJ)	.
4r	4r	4r	4r	16ff\LL	.
.	.	.	.	16ee-\	.
.	.	.	.	16dd\	.
.	.	.	.	16cc\JJ	.
16D\LL	16B-/LL	16ff\LL	16b-\LL	16b-\LL	6
16D\	16B-/	16ff\	16b-\	16b-\	.
16D\	16B-/	16ff\	16b-\	16b-\	.
16D\JJ	16B-/JJ	16ff\JJ	16b-\JJ	16b-\JJ	.
16D\LL	16B-/LL	16ff\LL	16a-/LL	16a-/LL	6 b5
16D\	16B-/	16ff\	16a-/	16a-/	.
16D\	16B-/	16ff\	16a-/	16a-/	.
16D\JJ	16B-/JJ	16ff\JJ	16a-/JJ	16a-/JJ	.
=73	=73	=73	=73	=73	=73
8E-\L	8B-/L	4ee-\	16g/LL	16g/LL	.
.	.	.	16e-/	16e-/	.
8E-\	8G/	.	16e-/	16e-/	.
.	.	.	16e-/JJ	16e-/JJ	.
8E-\	8G/	4r	16e-/LL	16e-/LL	.
.	.	.	16e-/	16e-/	.
8E-\J	8G/J	.	16e-/	16e-/	.
.	.	.	16e-/JJ	16e-/JJ	.
8D\L	8f\L	2r	16b-\LL	16b-\LL	6
.	.	.	16b-\	16b-\	.
8D\	8f\	.	16b-\	16b-\	.
.	.	.	16b-\JJ	16b-\JJ	.
8D\	8f\	.	16b-\LL	16b-\LL	.
.	.	.	16b-\	16b-\	.
8D\J	8f\J	.	16b-\	16b-\	.
.	.	.	16b-\JJ	16b-\JJ	.
=74	=74	=74	=74	=74	=74
8C/L	8e-\L	16e-/LL	8ee-\L	8ee-\L	.
.	.	16e-/	.	.	.
8C/	8e-\	16e-/	8e-\J	8e-\J	.
.	.	16e-/JJ	.	.	.
8C/	8e-\	16e-/LL	16ee-\LL	16ee-\LL	.
.	.	16e-/	16ff\	16ff\	.
8C/J	8e-\J	16e-/	16gg\	16gg\	.
.	.	16e-/JJ	16ee-\JJ	16ee-\JJ	.
8D\L	8d\L	16b-\LL	16ff\LL	16ff\LL	6
.	.	16b-\	16ee-\	16ee-\	.
8D\	8B-\J	16b-\	16dd\	16dd\	.
.	.	16b-\JJ	16cc\JJ	16cc\JJ	.
8D\	4r	16b-\LL	16b-/LL	16b-/LL	.
.	.	16b-\	16a-/	16a-/	.
8D\J	.	16b-\	16g/	16g/	.
.	.	16b-\JJ	16f/JJ	16f/JJ	.
=75	=75	=75	=75	=75	=75
4EE-/	16E-/LL	8ee-\L	8g/L	8g/L	.
.	16E-/	.	.	.	.
.	16E-/	8e-\J	8e-/J	8e-/J	.
.	16E-/JJ	.	.	.	.
4r	16E-/LL	16ee-\LL	16gg\LL	16gg\LL	.
.	16E-/	16ff\	16aa-\	16aa-\	.
.	16E-/	16gg\	16bb-\	16bb-\	.
.	16E-/JJ	16ee-\JJ	16gg\JJ	16gg\JJ	.
2r	16B-/LL	16ff\LL	16aa-\LL	16aa-\LL	.
.	16B-/	16ee-\	16gg\	16gg\	.
.	16B-/	16dd\	16ff\	16ff\	.
.	16B-/JJ	16cc\JJ	16ee-\JJ	16ee-\JJ	.
.	16B-/LL	16b-/LL	16dd\LL	16dd\LL	.
.	16B-/	16a-/	16cc\	16cc\	.
.	16B-/	16g/	16b-\	16b-\	.
.	16B-/JJ	16f/JJ	16a-\JJ	16a-\JJ	.
=76	=76	=76	=76	=76	=76
16EE-/LL	8e-/L	8g/L	8b-\L	8b-\L	.
16EE-/	.	.	.	.	.
16EE-/	8E-/J	8e-/J	8g\	8g\	.
16EE-/JJ	.	.	.	.	.
16EE-/LL	16e-\LL	16gg\LL	8b-\	8b-\	.
16EE-/	16f\	16aa-\	.	.	.
16EE-/	16g\	16bb-\	8ee-\J	8ee-\J	.
16EE-/JJ	16e-\JJ	16gg\JJ	.	.	.
16BB-/LL	16f\LL	16aa-\LL	16dd\LL	16dd\LL	7
16BB-/	16e-\	16gg\	16dd\	16dd\	.
16BB-/	16d\	16ff\	16dd\	16dd\	.
16BB-/JJ	16c\JJ	16ee-\JJ	16dd\JJ	16dd\JJ	.
16BB-/LL	16B-/LL	16dd\LL	16dd\LL	16dd\LL	.
16BB-/	16A-/	16cc\	16dd\	16dd\	.
16BB-/	16G/	16b-\	16dd\	16dd\	.
16BB-/JJ	16F/JJ	16a-\JJ	16dd\JJ	16dd\JJ	.
=77	=77	=77	=77	=77	=77
4EE-/	4G/	4b-\	4ee-\	(32ee-\LLL	.
.	.	.	.	32b-\	.
.	.	.	.	32cc\	.
.	.	.	.	32dd\	.
.	.	.	.	32ee-\	.
.	.	.	.	32ff\	.
.	.	.	.	32gg\	.
.	.	.	.	32aa-\JJJ	.
4r	4r	4r	4r	16bb-\LL)	.
.	.	.	.	16aa-\	.
.	.	.	.	16gg\	.
.	.	.	.	16ff\JJ	.
2r	2r	2r	2r	(32ee-\LLL	.
.	.	.	.	32b-\	.
.	.	.	.	32cc\	.
.	.	.	.	32dd\	.
.	.	.	.	32ee-\	.
.	.	.	.	32ff\	.
.	.	.	.	32gg\	.
.	.	.	.	32aa-\JJJ	.
.	.	.	.	16bb-\LL)	.
.	.	.	.	16dd-\	.
.	.	.	.	16cc\	.
.	.	.	.	16b-\JJ	.
=78	=78	=78	=78	=78	=78
2r	2r	2r	2r	16cc/LL	.
.	.	.	.	16a-/	.
.	.	.	.	16a-/	.
.	.	.	.	16e-/JJ	.
.	.	.	.	16e-/LL	.
.	.	.	.	16c/	.
.	.	.	.	16c/	.
.	.	.	.	16A-/JJ	.
8AA-/L	8A-/L	8A-/L	8A-/L	4A-/	.
8AA-/	8A-/	8A-/	8A-/	.	.
8AA-/	8A-/	8A-/	8A-/	4r	.
8AA-/J	8A-/J	8A-/J	8A-/J	.	.
=79	=79	=79	=79	=79	=79
4AA-/	4A-/	4A-/	4A-/	(32ff\LLL	6
.	.	.	.	32cc\	.
.	.	.	.	32dd\	.
.	.	.	.	32ee-\	.
.	.	.	.	32ff\	.
.	.	.	.	32gg\	.
.	.	.	.	32aa-\	.
.	.	.	.	32bb-\JJJ	.
4r	4r	4r	4r	16ccc\LL)	.
.	.	.	.	16bb-\	.
.	.	.	.	16aa-\	.
.	.	.	.	16gg\JJ	.
2r	2r	2r	2r	(32ff\LLL	.
.	.	.	.	32cc\	.
.	.	.	.	32dd\	.
.	.	.	.	32ee-\	.
.	.	.	.	32ff\	.
.	.	.	.	32gg\	.
.	.	.	.	32aa-\	.
.	.	.	.	32bb-\JJJ	.
.	.	.	.	16ccc\LL)	.
.	.	.	.	16ee-\	.
.	.	.	.	16dd\	.
.	.	.	.	16cc\JJ	.
=80	=80	=80	=80	=80	=80
2r	2r	2r	2r	16dd/LL	.
.	.	.	.	16b-/	.
.	.	.	.	16b-/	.
.	.	.	.	16f/JJ	.
.	.	.	.	16f/LL	.
.	.	.	.	16d/	.
.	.	.	.	16d/	.
.	.	.	.	16B-/JJ	.
8BB-/L	8B-/L	8B-/L	8B-/L	4B-/	.
8BB-/	8B-/	8B-/	8B-/	.	.
8BB-/	8B-/	8B-/	8B-/	4r	.
8BB-/J	8B-/J	8B-/J	8B-/J	.	.
=81	=81	=81	=81	=81	=81
4BB-/	4B-/	4B-/	4B-/	(32gg\LLL	6
.	.	.	.	32dd\	.
.	.	.	.	32ee-\	.
.	.	.	.	32ff\	.
.	.	.	.	32gg\	.
.	.	.	.	32aa-\	.
.	.	.	.	32bb-\	.
.	.	.	.	32ccc\JJJ	.
4r	4r	4r	4r	16ddd\LL)	.
.	.	.	.	16ccc\	.
.	.	.	.	16bb-\	.
.	.	.	.	16aa-\JJ	.
2r	2r	2r	2r	(32gg\LLL	.
.	.	.	.	32dd\	.
.	.	.	.	32ee-\	.
.	.	.	.	32ff\	.
.	.	.	.	32gg\	.
.	.	.	.	32aa-\	.
.	.	.	.	32bb-\	.
.	.	.	.	32ccc\JJJ	.
.	.	.	.	16ddd\LL)	.
.	.	.	.	16ff\	.
.	.	.	.	16ee-\	.
.	.	.	.	16dd\JJ	.
=82	=82	=82	=82	=82	=82
2r	2r	2r	2r	16ee-\LL	.
.	.	.	.	16cc\	.
.	.	.	.	16cc\	.
.	.	.	.	16g\JJ	.
.	.	.	.	16g/LL	.
.	.	.	.	16e-/	.
.	.	.	.	16e-/	.
.	.	.	.	16c/JJ	.
8C/L	8c\L	8c/L	8c/L	4c/	.
8C/	8c\	8c/	8c/	.	.
8C/	8c\	8c/	8c/	4r	.
8C/J	8c\J	8c/J	8c/J	.	.
=83	=83	=83	=83	=83	=83
4C/	4c\	4c/	4c/	(32aa-\LLL	6
.	.	.	.	32ee-\	.
.	.	.	.	32ff\	.
.	.	.	.	32gg\	.
.	.	.	.	32aa-\	.
.	.	.	.	32bb-\	.
.	.	.	.	32ccc\	.
.	.	.	.	32ddd\JJJ	.
4r	4r	4r	4r	16eee-\LL)	.
.	.	.	.	16ddd\	.
.	.	.	.	16ccc\	.
.	.	.	.	16bb-\JJ	.
2r	2r	2r	2r	16aa-\LL	.
.	.	.	.	16ccc\	.
.	.	.	.	16ccc\	.
.	.	.	.	16ff\JJ	.
.	.	.	.	16ff\LL	.
.	.	.	.	16aa-\	.
.	.	.	.	16aa-\	.
.	.	.	.	16dd\JJ	.
=84	=84	=84	=84	=84	=84
4BB-/	1r	1r	1r	16dd\LL	.
.	.	.	.	16ff\	.
.	.	.	.	16ff\	.
.	.	.	.	16b-\JJ	.
4r	.	.	.	16b-\LL	.
.	.	.	.	16dd\	.
.	.	.	.	16dd\	.
.	.	.	.	16f\JJ	.
4BB-/	.	.	.	16f/LL	.
.	.	.	.	16a-/	.
.	.	.	.	16a-/	.
.	.	.	.	16d/JJ	.
4r	.	.	.	16d/LL	.
.	.	.	.	16f/	.
.	.	.	.	16f/	.
.	.	.	.	16A-/JJ	.
=85	=85	=85	=85	=85	=85
16BB-\LL	4F/	4A-/	4A-/	4A-/	7
16A-\	.	.	.	.	.
16A-\	.	.	.	.	.
16D\JJ	.	.	.	.	.
16D\LL	4r	4r	4r	4r	.
16F\	.	.	.	.	.
16F\	.	.	.	.	.
16BB-\JJ	.	.	.	.	.
16BB-\LL	4F/	4A-/	4A-/	4A-/	.
16A-\	.	.	.	.	.
16A-\	.	.	.	.	.
16D\JJ	.	.	.	.	.
16D\LL	4r	4r	4r	4r	.
16F\	.	.	.	.	.
16F\	.	.	.	.	.
16BB-\JJ	.	.	.	.	.
=86	=86	=86	=86	=86	=86
16BB-\LL	4F/	4A-/	4A-/	4A-/	.
16A-\	.	.	.	.	.
16A-\	.	.	.	.	.
16D\JJ	.	.	.	.	.
16D\LL	4r	4r	4r	4r	.
16F\	.	.	.	.	.
16F\	.	.	.	.	.
16BB-\JJ	.	.	.	.	.
!! [Cadenza] 
!! Allegro;  In Dresden MS and Manchester partbooks: Presto
2BB-;/	2F;/	2A-;/	2A-;/	2A-;/	7
=87	=87	=87	=87	=87	=87
16E-\LL	16b-\LL	16ee-\LL	16gg\LL	16gg\LL	.
16E-\	16b-\	16ee-\	16gg\	16gg\	.
16E-\	16b-\	16ee-\	16gg\	16gg\	.
16E-\JJ	16b-\JJ	16ee-\JJ	16gg\JJ	16gg\JJ	.
16E-\LL	16b-\LL	16ee-\LL	16gg\LL	16gg\LL	.
16E-\	16b-\	16ee-\	16gg\	16gg\	.
16E-\	16b-\	16ee-\	16gg\	16gg\	.
16E-\JJ	16b-\JJ	16ee-\JJ	16gg\JJ	16gg\JJ	.
8BB-/L	8d\L	16ff\LL	16aa-\LL	16aa-\LL	7 5
.	.	16ff\	16aa-\	16aa-\	.
16C/L	16e-\L	16ff\	16aa-\	16aa-\	.
16D/JJ	16f\JJ	16ff\JJ	16aa-\JJ	16aa-\JJ	.
16E-\LL	16g\LL	16ee-\LL	16gg\LL	16gg\LL	.
16F\	16a-\	16ee-\	16gg\	16gg\	.
16G\	16b-\	16ee-\	16gg\	16gg\	.
16A-\JJ	16cc\JJ	16ee-\JJ	16gg\JJ	16gg\JJ	.
=88	=88	=88	=88	=88	=88
8B-\L	8f\L	16dd\LL	16ff\LL	16ff\LL	.
.	.	16dd\	16ff\	16ff\	.
8BB-\	8f\	16dd\	16ff\	16ff\	.
.	.	16dd\JJ	16ff\JJ	16ff\JJ	.
8BB-\	8e-\	16ee-\LL	16gg\LL	16gg\LL	.
.	.	16ee-\	16gg\	16gg\	.
8BB-\J	8e-\J	16ee-\	16gg\	16gg\	.
.	.	16ee-\JJ	16gg\JJ	16gg\JJ	.
8BB-/L	8d\L	16ff\LL	16aa-\LL	16aa-\LL	7 5
.	.	16ff\	16aa-\	16aa-\	.
16C/L	16e-\L	16ff\	16aa-\	16aa-\	.
16D/JJ	16f\JJ	16ff\JJ	16aa-\JJ	16aa-\JJ	.
16E-\LL	16g\LL	16ee-\LL	16gg\LL	16gg\LL	.
16F\	16a-\	16ee-\	16gg\	16gg\	.
16G\	16b-\	16ee-\	16gg\	16gg\	.
16A-\JJ	16cc\JJ	16ee-\JJ	16gg\JJ	16gg\JJ	.
=89	=89	=89	=89	=89	=89
8B-\L	8f\L	16dd\LL	16ff\LL	16ff\LL	.
.	.	16dd\	16ff\	16ff\	.
8BB-\	8f\	16dd\	16ff\	16ff\	.
.	.	16dd\JJ	16ff\JJ	16ff\JJ	.
8BB-\	8e-\	16ee-\LL	16gg\LL	16gg\LL	6 4
.	.	16ee-\	16gg\	16gg\	.
8BB-\J	8e-\J	16ee-\	16gg\	16gg\	.
.	.	16ee-\JJ	16gg\JJ	16gg\JJ	.
8BB-/L	8d\L	16ff\LL	16aa-\LL	16aa-\LL	7 5
.	.	16ff\	16aa-\	16aa-\	.
16C/L	16e-\L	16ff\	16aa-\	16aa-\	.
16D/JJ	16f\JJ	16ff\JJ	16aa-\JJ	16aa-\JJ	.
16E-\LL	16g\LL	16ee-\LL	16gg\LL	16gg\LL	.
16F\	16a-\	16ee-\	16gg\	16gg\	.
16G\	16b-\	16ee-\	16gg\	16gg\	.
16A-\JJ	16cc\JJ	16ee-\JJ	16gg\JJ	16gg\JJ	.
=90	=90	=90	=90	=90	=90
8B-\L	4f\	4dd\	4ff\	4ff\	.
16A-\L	.	.	.	.	.
16G\JJ	.	.	.	.	.
16F\LL	4r	4r	4r	4r	.
16E-\	.	.	.	.	.
16D\	.	.	.	.	.
16C\JJ	.	.	.	.	.
8BB-/L	8d\L	8B-/L	8bb-\L	8bb-\L	.
8BB-/	8d\	16c/L	16aa-\L	16aa-\L	.
.	.	16d/JJ	16gg\JJ	16gg\JJ	.
8BB-/	8d\	16e-/LL	16ff\LL	16ff\LL	.
.	.	16f/	16ee-\	16ee-\	.
8BB-/J	8d\J	16g/	16dd\	16dd\	.
.	.	16a-/JJ	16cc\JJ	16cc\JJ	.
=91	=91	=91	=91	=91	=91
8BB-/L	8d\L	8b-\L	8b-/L	8b-/L	.
8BB-/	8d\	16cc\L	16a-/L	16a-/L	.
.	.	16dd\JJ	16g/JJ	16g/JJ	.
8BB-/	8d\	16ee-\LL	16f/LL	16f/LL	.
.	.	16ff\	16e-/	16e-/	.
8BB-/J	8d\J	16gg\	16d/	16d/	.
.	.	16aa-\JJ	16c/JJ	16c/JJ	.
4BB-/	4d\	4bb-\	4B-/	4B-/	.
4r	4r	4r	4r	4r	.
=92	=92	=92	=92	=92	=92
!! In Manchester partbooks: Segue subito
1r	1r	1r	1r	1r	.
==|!	==|!	==|!	==|!	==|!	==|!
*-	*-	*-	*-	*-	*-
!!!CDT: 1678/3/4/-1741/7/28
!!!OCY: Italia
!!!ODE: Count Wenzeslaus von Morzin of Bohemia; Count Wenceslas of Morzin
!!!ODT: 1725///
!!!OPC: Venezia; Venice
!!!AGN: concerto
!!!AST: baroque
!!!AMT: simple quadruple
!!!PPR: Michel-Charles Le Ce`ne
!!!PC#: Le Cene No. 520
!!!PDT: 1725///
!!!PPP: Amsterdam
!!!SCT: RV 253
!!!SMA1: The cooperation of the following libraries is gratefully acknowledged:
!!!SMA2: Saechsische Landesbibliothek, Dresden; Biblioteca Nazionale
!!!SMA3: Universitaria, Turin; Henry Watson Music Library, Manchester.
!!!YOR: New York: Dover Publications, Inc. 1995
!!!AIN: cello cemba viola violn
!!!EEV: 1.0
!!!RDT: 1994/4/14/
!!!YER: 1996/10/31/
!!!YEP: Center for Computer Assisted Research in the Humanities
!!!YEN: United States of America
!!!EFL: 1/3
!!!ENC: Edmund Correia, Jr.
!!!EED: Eleanor Selfridge-Field
